!!!!SEGMENT: pl-kk--kk-i-7--036-003_pekiel-bartlomiej--missa-patrem.krn
!!!id: 16xx:832
!!!COM: Pękiel, Bartłomiej
!!!COM-rism: pe30105642
!!!CDT: <1633-~1670
!!!CNT: Polish
!!!OTL: Missa – Patrem
!!!PDT: 1669
!!!SMS-siglum: PL-Kk
!!!SMS-shelfmark: Kk.I.7
!!!NIFC-rismID: 300258113
!!!URL-scan: http://repozytorium.nifc.pl/skany/pl-kk-nut--i-7
!!!ONB-nifc: UWAGA: A (skan 0029-0030, s.49-58), T (0115-0117, s.48-57), C(0190-0191, s.41-50), B(0282-0284, s.49-57). Części Mszy: 1. Kyrie, 2. Et in terra, 3. Patrem,. 4. Sanctus, 5. Benedictus, 6. Agnus Dei
!!!SMS-variant:
!!!SMS-altvar:
**kern	**text	**kern	**text	**kern	**text	**kern	**text
*part4	*part4	*part3	*part3	*part2	*part2	*part1	*part1
*staff4	*staff4	*staff3	*staff3	*staff2	*staff2	*staff1	*staff1
*I"Basso	*	*I"Tenore	*	*I"Alto	*	*I"Canto	*
*I'B.	*	*I'T.	*	*I'A.	*	*I'C.	*
*clefF4	*	*clefC4	*	*clefC3	*	*clefC1	*
*k[]	*	*k[]	*	*k[]	*	*k[]	*
*M2/1	*	*M2/1	*	*M2/1	*	*M2/1	*
*met(C|)	*	*met(C|)	*	*met(C|)	*	*met(C|)	*
=1-	=1-	=1-	=1-	=1-	=1-	=1-	=1-
!	!	!	!	!	!	!LO:SIC:o:v=all\right	!
00r	.	00r	.	1d\	Pa-	00r	.
.	.	.	.	2A/	-trem	.	.
*	*	*	*	*2\right	*	*	*
!	!	!	!	!LO:TX:t=P:problem:kreska pseudotaktowa	!	!	!
.	.	.	.	2d\	om-	.	.
=2-	=2-	=2-	=2-	=2-	=2-	=2-	=2-
.	.	.	.	2c/	-ni-	.	.
.	.	.	.	2f\	-po-	.	.
.	.	.	.	4e\	-ten-	.	.
.	.	.	.	4d\	.	.	.
.	.	.	.	4c/	.	.	.
!	!	!	!	!LO:TX:t=P:problem:kreska pseudotaktowa	!	!	!
.	.	.	.	4B/	.	.	.
=3-	=3-	=3-	=3-	=3-	=3-	=3-	=3-
00r	.	00r	.	2A/	.	1a\	Pa-
.	.	.	.	2.f\	.	.	.
!	!	!	!	!	!	!LO:SIC:o:v=all\right&colon;global	!
.	.	.	.	.	.	2d/	-trem
.	.	.	.	4e\	.	.	.
*	*	*	*	*	*	*2\right	*
.	.	.	.	2.d\	.	2a\	om-
=4-	=4-	=4-	=4-	=4-	=4-	=4-	=4-
.	.	.	.	.	.	2f/	-ni-
.	.	.	.	4c/	.	.	.
.	.	.	.	4d\	.	2b-X\	-po-
!	!	!	!	!LO:TX:t=P:problem:kreska pseudotaktowa	!	!	!
.	.	.	.	4e\	.	.	.
.	.	.	.	4f\	.	4a\	-ten-
.	.	.	.	4e\	.	4g/	.
.	.	.	.	4d\	.	4f/	.
!	!	!	!	!LO:TX:t=P:problem:kreska pseudotaktowa	!	!	!
.	.	.	.	4c/	.	4e/	.
=5-	=5-	=5-	=5-	=5-	=5-	=5-	=5-
!	!	!LO:TX:t=P:problem:kreska pseudotaktowa	!	!	!	!	!
00r	.	0r	.	4B-/	.	2d/	.
.	.	.	.	4A/	.	.	.
.	.	.	.	4G/	.	2b-X\	.
.	.	.	.	2g\	.	.	.
!	!	!	!	!	!	!LO:TX:t=P:problem:oddech jako rozdzielacz słów, przeważnie na wysokości dźwięku poprzedzającego:global	!
.	.	.	.	.	.	2a,\	-tem
.	.	.	.	4f\	.	.	.
.	.	.	.	4f\	.	2dd\	om-
.	.	.	.	8e\L	.	.	.
!	!	!	!	!LO:TX:t=P:problem:kreska pseudotaktowa	!	!	!
.	.	.	.	8d\J	.	.	.
=6-	=6-	=6-	=6-	=6-	=6-	=6-	=6-
.	.	1A\	Pa-	1e\	.	2dd\	-ni-
!	!	!	!	!	!	!LO:TX:a:t=P:problem:# above	!
.	.	.	.	.	.	2cc#X\	-po-
.	.	2D/	-trem	2f,\	-tem	2dd\	-ten-
!	!	!LO:TX:t=P:problem:kreska pseudotaktowa	!	!LO:TX:t=P:problem:kreska pseudotaktowa	!	!	!
.	.	2A/	om-	2e\	om-	4cc#\	.
.	.	.	.	.	.	4b\	.
=7-	=7-	=7-	=7-	=7-	=7-	=7-	=7-
!LO:TX:t=P:problem:kreska pseudotaktowa	!	!	!	!	!	!	!
0r	.	2F/	-ni-	2f\	-ni-	4a\	.
.	.	.	.	.	.	4g/	.
*	*	*2\right	*	*	*	*	*
!	!	!	!	!LO:TX:t=P:problem:kreska pseudotaktowa	!	!	!
.	.	2B-X\	-po-	2d\	-po-	4f/	.
.	.	.	.	.	.	4g/	.
.	.	4A/	-ten-	2c/	.	2.a\	.
.	.	4G/	.	.	.	.	.
.	.	4F/	.	4d\	.	.	.
!	!	!LO:TX:t=P:problem:kreska pseudotaktowa	!	!LO:TX:t=P:problem:kreska pseudotaktowa	!	!	!
.	.	4E/	.	4e\	.	4g/	.
=8-	=8-	=8-	=8-	=8-	=8-	=8-	=8-
1D\	Pa-	4D/	.	1f\	.	4f/	.
.	.	4E/	.	.	.	4g/	.
.	.	4F/	.	.	.	4a\	.
.	.	4G/	.	.	.	4b\	.
2AA/	-trem	2.A/	.	2e\	.	2cc\	.
!LO:TX:t=P:problem:kreska pseudotaktowa	!	!	!	!LO:SIC:v:t=custos e	!	!	!
2D/	om-	.	.	2f\	.	2dd\	.
!	!	!LO:TX:t=P:problem:kreska pseudotaktowa	!	!	!	!	!
.	.	4B\	.	.	.	.	.
!	!	!	!	!LO:LB:g=original	!	!	!
=9-	=9-	=9-	=9-	=9-	=9-	=9-	=9-
2C/	-ni-	4c\	.	4e\	.	2g/	.
.	.	4B\	.	4d\	.	.	.
*2\right	*	*	*	*	*	*	*
2F\	po-	2A/	.	4c/	.	1a\	.
!	!	!	!	!LO:TX:t=P:problem:kreska pseudotaktowa	!	!	!
.	.	.	.	4d\	.	.	.
*	*	*lig	*	*	*	*	*
2.E\	-ten-	1B\	.	2e\	-ten-	.	.
!	!	!	!	!	!	!LO:SIC:v:t=custos a	!
.	.	.	.	2e,\	-t(em)	2g/	.
!LO:TX:t=P:problem:kreska pseudotaktowa	!	!	!	!	!	!	!
4D/	.	.	.	.	.	.	.
!	!	!	!	!	!	!LO:LB:g=original	!
=10-	=10-	=10-	=10-	=10-	=10-	=10-	=10-
*	*	*	*	*	*	*lig	*
4C/	.	1c\	.	1e\	Pa-	1a\	.
4BB/	.	.	.	.	.	.	.
1AA/	.	.	.	.	.	.	.
*	*	*Xlig	*	*	*	*	*
!	!	!LO:TX:t=P:problem:kreska pseudotaktowa	!	!	!	!	!
.	.	1e\	.	2B/	-trem	1b\	.
!LO:TX:t=P:problem:kreska pseudotaktowa	!	!	!	!LO:TX:t=P:problem:kreska pseudotaktowa	!	!	!
2GG#X/	.	.	.	2e\	om-	.	.
*	*	*	*	*	*	*Xlig	*
=11-	=11-	=11-	=11-	=11-	=11-	=11-	=11-
2AA/	.	1A\,	-tem	2c/	-ni-	4cc\	.
.	.	.	.	.	.	4b\	.
1D\	.	.	.	2f\	-po-	4a\	.
.	.	.	.	.	.	4g/	.
.	.	2E/	om-	1e\	-ten-	1.a\	.
!LO:TX:t=P:problem:kreska pseudotaktowa	!	!LO:TX:t=P:problem:kreska pseudotaktowa	!	!	!	!	!
!LO:TX:a:t=P:problem:# above	!	!	!	!	!	!	!
2C#X/	.	2A/	-ni-	.	.	.	.
=12-	=12-	=12-	=12-	=12-	=12-	=12-	=12-
!	!	!	!	!LO:TX:t=P:problem:kreska pseudotaktowa	!	!	!
2D/	.	2F/	-po-	0d\	-t(em)	.	.
!LO:TX:t=P:problem:kreska pseudotaktowa	!	!	!	!	!	!	!
2GG/	.	2B-X\	-ten-	.	.	2g/	.
2.D/	.	4A/	.	.	.	2a\	.
.	.	4G/	.	.	.	.	.
.	.	4F/	.	.	.	2.dd\	.
!	!	!LO:TX:t=P:problem:kreska pseudotaktowa	!	!	!	!	!
4C/	.	4E/	.	.	.	.	.
=13-	=13-	=13-	=13-	=13-	=13-	=13-	=13-
*	*	*lig	*	*	*	*	*
4BB-X/	.	1D/	.	0d\	.	.	.
4AA/	.	.	.	.	.	4cc\	.
*	*	*	*	*	*	*lig	*
1GG/	.	.	.	.	.	1b-X\	tem
.	.	1A\	.	.	.	.	.
!LO:TX:t=P:problem:kreska pseudotaktowa	!	!	!	!	!	!	!
2FF#X/	.	.	.	.	.	1a,\	.
*	*	*Xlig	*	*	*	*Xlig	*
=14-	=14-	=14-	=14-	=14-	=14-	=14-	=14-
!	!	!LO:TX:t=P:problem:kreska pseudotaktowa	!	!LO:TX:t=P:problem:kreska pseudotaktowa	!	!	!
1GG/	.	1B-X\	.	1r	.	.	.
.	.	.	.	.	.	2g/	om-
!LO:TX:t=P:problem:kreska pseudotaktowa	!	!	!	!	!	!	!
1D\	-tem	2A,/	-tem	2r	.	2g/	-ni-
*	*	*	*	*lig	*	*	*
!	!	!LO:TX:t=P:problem:kreska pseudotaktowa	!	!	!	!	!
.	.	2d\	Fac-	1f\	Fac-	2f/	-po-
=15-	=15-	=15-	=15-	=15-	=15-	=15-	=15-
0r	.	2d\	-to-	.	.	2b-X\	-ten-
!	!	!LO:TX:t=P:problem:kreska pseudotaktowa	!	!	!	!	!
!	!	!LO:SIC:v:t=custos d	!	!	!	!	!
!	!	!LO:TX:a:t=P:problem:# above	!	!	!	!	!
.	.	2c#X\	-rem	1e\	.	4a\	.
.	.	.	.	.	.	4g/	.
*	*	*	*	*Xlig	*	*	*
!	!	!LO:LB:g=original	!	!	!	!	!
.	.	4d\	cae-	.	.	1f/	.
.	.	4D/	.	.	.	.	.
.	.	4F/	.	1d\	-to-	.	.
!	!	!LO:TX:t=P:problem:kreska pseudotaktowa	!	!	!	!	!
.	.	4G/	.	.	.	.	.
=16-	=16-	=16-	=16-	=16-	=16-	=16-	=16-
2r	.	4A/	.	.	.	0e/	-tem
.	.	4B\	.	.	.	.	.
!LO:TX:t=P:problem:kreska pseudotaktowa	!	!	!	!	!	!	!
!LO:SIC:v:t=custos a	!	!	!	!	!	!	!
2A\	Fa-	4c\	.	1c\	-rem	.	.
.	.	4d\	.	.	.	.	.
!LO:LB:g=original	!	!	!	!	!	!	!
2A\	-cto-	2.e\	.	.	.	.	.
!LO:TX:t=P:problem:kreska pseudotaktowa	!	!	!	!LO:TX:t=P:problem:kreska pseudotaktowa	!	!	!
!LO:TX:a:t=P:problem:# above	!	!	!	!	!	!	!
2G#X\	-rem	.	.	2B/	cae-	.	.
!	!	!LO:TX:t=P:problem:kreska pseudotaktowa	!	!	!	!	!
.	.	4d\	.	.	.	.	.
=17-	=17-	=17-	=17-	=17-	=17-	=17-	=17-
2.A\	cae-	2.c\	.	2A/	-li	2r	.
!	!	!	!	!LO:TX:t=P:problem:kreska pseudotaktowa	!	!	!
.	.	.	.	2r	.	2ee\	Fac-
4G\	.	4B\	.	.	.	.	.
!	!	!LO:TX:t=P:problem:kreska pseudotaktowa	!	!	!	!	!
1F\	-li	1A\	.	2r	.	2ee\	-to-
!	!	!	!	!LO:TX:t=P:problem:kreska pseudotaktowa	!	!	!
*	*	*	*	*	*ij	*	*
.	.	.	.	2a\	Fac-	2dd\	-rem
=18-	=18-	=18-	=18-	=18-	=18-	=18-	=18-
!LO:TX:t=P:problem:kreska pseudotaktowa	!	!	!	!	!	!	!
(1E\	et	2.B\	.	2a\	-to-	2ee\	cae-
.	.	.	.	1g\	-rem	2.b\	.
.	.	4c\	-li	.	.	.	.
1D\)	.	4d\	.	.	.	.	.
.	.	4c\	et	.	.	4a\	-li
.	.	4B\	.	1fn\	cae-	1dd\	et
!	!	!LO:TX:t=P:problem:kreska pseudotaktowa	!	!	!	!	!
.	.	4A/	.	.	.	.	.
=19-	=19-	=19-	=19-	=19-	=19-	=19-	=19-
0E\	ter-	2G#X/	.	.	.	.	.
!	!	!	!	!LO:TX:t=P:problem:kreska pseudotaktowa	!	!	!
.	.	1A\	ter-	2e\	.	2cc\	.
.	.	.	.	2e\	-li	1b\	ter-
!	!	!LO:TX:t=P:problem:kreska pseudotaktowa	!	!	!	!	!
.	.	2G#/	.	1e\	et	.	.
=20-	=20-	=20-	=20-	=20-	=20-	=20-	=20-
!LO:TX:t=P:problem:kreska pseudotaktowa	!	!	!	!	!	!	!
1AA/,	-rae.	1A\,	-rae.	.	.	1a\	-rae
!	!	!	!	!LO:TX:t=P:problem:kreska pseudotaktowa	!	!	!
.	.	.	.	2e\	ter-	.	.
!	!	!LO:TX:t=P:problem:kreska pseudotaktowa	!	!	!	!	!
1A\	Vi-	1c\	Vi-	1e\	-rae	1r	.
*	*	*	*	*	*Xij	*	*
=21-	=21-	=21-	=21-	=21-	=21-	=21-	=21-
!	!	!	!	!LO:TX:t=P:problem:kreska pseudotaktowa	!	!	!
1Bn\	-ſi-	1d\	-ſi-	1r	.	2r	.
.	.	.	.	.	.	1g\	Vi-
!	!	!	!	!LO:TX:a:t=P:problem:# above	!	!	!
4.c\	-bi-	4.e\	-bi-	2e#X\	Vi-	.	.
8c\	-li-	8d\	-li-	.	.	.	.
!	!	!	!	!LO:TX:t=P:problem:kreska pseudotaktowa	!	!	!
!LO:TX:t=P:problem:kreska pseudotaktowa	!	!LO:TX:t=P:problem:kreska pseudotaktowa	!	!LO:TX:a:t=P:problem:# above	!	!LO:SIC:v:t=b	!
2A\	-um	2c\	-um	2f#X\	-si-	2a\	-ſi-
!	!	!	!	!	!	!LO:LB:g=original	!
=22-	=22-	=22-	=22-	=22-	=22-	=22-	=22-
2.G\	om-	2.d\	om-	2.g\	-bi-	2.b\	-bi-
!	!	!	!	!LO:TX:t=P:problem:kreska pseudotaktowa	!	!	!
!	!	!	!	!LO:SIC:v:t=custos g	!	!	!
4G\	-ni-	4d\	-ni-	4g\	-li-	4b\	-li-
!LO:TX:t=P:problem:kreska pseudotaktowa	!	!LO:TX:t=P:problem:kreska pseudotaktowa	!	!LO:LB:g=original	!	!	!
1D\	-um	1d\	-um,	(2.g\	-um	2a\	-um
.	.	.	.	.	.	2dd\	et
.	.	.	.	8f-X\L)	.	.	.
!	!	!	!	!LO:TX:t=P:problem:kreska pseudotaktowa	!	!	!
.	.	.	.	8e\J	.	.	.
=23-	=23-	=23-	=23-	=23-	=23-	=23-	=23-
2r	.	1r	.	2f-X\	o-	2a\	in-
*	*	*	*	*	*	*lig	*
!LO:TX:t=P:problem:kreska pseudotaktowa	!	!	!	!	!	!	!
2A\	et	.	.	(<4e\	-mni-	1cc\	-vi-
!	!	!	!	!LO:TX:t=P:problem:kreska pseudotaktowa	!	!	!
.	.	.	.	4f-\)	-um	.	.
2E\	in	2e\	et	2.g\	et	.	.
!	!	!LO:TX:t=P:problem:kreska pseudotaktowa	!	!	!	!	!
1G\	vi-	2B\	in	.	.	1b\	.
.	.	.	.	8f-\L	.	.	.
!	!	!	!	!LO:TX:t=P:problem:kreska pseudotaktowa	!	!	!
.	.	.	.	8e\J	.	.	.
*	*	*	*	*	*	*Xlig	*
=24-	=24-	=24-	=24-	=24-	=24-	=24-	=24-
.	.	1.d\	vi-	4d\	in	.	.
.	.	.	.	4e\	.	.	.
!LO:TX:t=P:problem:kreska pseudotaktowa	!	!	!	!	!	!	!
2D/	-ſi-	.	.	4f\	vi-	2a\	-ſi-
!	!	!	!	!LO:TX:t=P:problem:kreska pseudotaktowa	!	!	!
.	.	.	.	4f\	-ſi-	.	.
*	*	*	*	*lig	*	*	*
(2.E\	-bi-	.	.	1e\	-bi-	1.g\	-bi-
!	!	!LO:TX:t=P:problem:kreska pseudotaktowa	!	!	!	!	!
.	.	2c\	-ſi-	.	.	.	.
!LO:TX:t=P:problem:kreska pseudotaktowa	!	!	!	!	!	!	!
4F\	.	.	.	.	.	.	.
=25-	=25-	=25-	=25-	=25-	=25-	=25-	=25-
*	*	*	*	*col	*	*	*
2.G\)	.	2.c\	-bi-	2.d\	.	.	.
.	.	.	.	.	.	2g/	-li-
*	*	*	*	*Xlig	*	*	*
!	!	!	!	!LO:TX:t=P:problem:kreska pseudotaktowa	!	!	!
!	!	!LO:SIC:v:t=custos c	!	!	!	!	!
4G\	-li-	4B\	-li-	4d\	-li-	.	.
*	*	*	*	*Xcol	*	*	*
!LO:TX:t=P:problem:kreska pseudotaktowa	!	!LO:LB:g=original	!	!	!	!	!
1C/	-um	2c,\	-um.	2e,\	-um.	2g,/	-um.
.	.	1c\	Et	1e\	Et	1g\	Et
=26-	=26-	=26-	=26-	=26-	=26-	=26-	=26-
0r	.	.	.	.	.	.	.
!	!	!LO:TX:t=P:problem:kreska pseudotaktowa	!	!LO:TX:t=P:problem:kreska pseudotaktowa	!	!	!
.	.	2c\	in	2e\	in	2g/	in
.	.	2A/	U-	2f#X\	U-	2a\	U-
.	.	2G/	-num	4g\	-num	2b\	-num
.	.	.	.	2g\	Do-	.	.
=27-	=27-	=27-	=27-	=27-	=27-	=27-	=27-
*	*	*	*	*	*	*lig	*
!LO:TX:t=P:problem:kreska pseudotaktowa	!	!	!	!	!	!	!
1r	.	2.A/	Do-	.	.	1cc\	Do-
!	!	!	!	!LO:TX:a:t=P:problem:# above	!	!	!
.	.	.	.	8f#X\L	.	.	.
.	.	.	.	8e\J	.	.	.
.	.	.	.	4.f#X\	.	.	.
!	!	!LO:TX:t=P:problem:kreska pseudotaktowa	!	!	!	!	!
.	.	4A/	-mi-	.	.	.	.
!	!	!	!	!LO:TX:t=P:problem:kreska pseudotaktowa	!	!	!
.	.	.	.	8f#\	-mi-	.	.
*	*	*	*	*	*	*col	*
4GG/	Je-	1G/	-num	2g,\	-num	2.b\	.
4AA/	.	.	.	.	.	.	.
4BB/	.	.	.	4d\	Je-	.	.
*	*	*	*	*	*	*Xlig	*
!LO:TX:t=P:problem:kreska pseudotaktowa	!	!	!	!LO:TX:t=P:problem:kreska pseudotaktowa	!	!	!
4C/	.	.	.	4e\	.	4b\	-mi-
*	*	*	*	*	*	*Xcol	*
=28-	=28-	=28-	=28-	=28-	=28-	=28-	=28-
4D/	.	2r	.	4f\	.	1a\	-num
4E\	.	.	.	4g\	.	.	.
4F\	.	4A/	Je-	2a\	.	.	.
!LO:TX:t=P:problem:kreska pseudotaktowa	!	!	!	!	!	!	!
!LO:SIC:v:t=custos a +sylaba sum	!	!LO:TX:t=P:problem:kreska pseudotaktowa	!	!	!	!	!
4G\	.	4B\	.	.	.	.	.
!LO:PB:g=original	!	!	!	!	!	!	!
1.A\	.	4c\	.	1e\	-ſum	4a\	Je-
.	.	4d\	.	.	.	4b\	.
.	.	4e\	.	.	.	4cc\	.
!	!	!LO:TX:t=P:problem:kreska pseudotaktowa	!	!	!	!	!
.	.	4d\	.	.	.	4dd\	.
=29-	=29-	=29-	=29-	=29-	=29-	=29-	=29-
!	!	!	!	!LO:TX:t=P:problem:kreska pseudotaktowa	!	!	!
.	.	2c\	.	1e\	Chri-	2.ee\	.
!	!	!LO:TX:t=P:problem:kreska pseudotaktowa	!	!	!	!	!
2G#X\	-sum	2B\	-ſum	.	.	.	.
.	.	.	.	.	.	4dd\	.
1A\	Chri-	4A/	Chri-	2e\	-ſtum	2cc\	.
.	.	4B\	.	.	.	.	.
.	.	4c\	.	2.a\	Fi-	2cc\	-ſum
.	.	4d\	.	.	.	.	.
=30-	=30-	=30-	=30-	=30-	=30-	=30-	=30-
!LO:TX:t=P:problem:kreska pseudotaktowa	!	!LO:TX:t=P:problem:kreska pseudotaktowa	!	!	!	!	!
1E\	-ſtum	1e\	.	.	.	1b\	Chriſ-
.	.	.	.	4a\	-li-	.	.
!	!	!	!	!LO:TX:t=P:problem:kreska pseudotaktowa	!	!	!
!	!	!	!	!LO:SIC:v:t=custos f	!	!	!
.	.	.	.	2g-X\	-um	.	.
!	!	!	!	!LO:LB:g=original	!	!	!
00r	.	2A,/	-ſtum	2f\	De-	2a\	-tum
.	.	2.A/	Fi-	4e\	.	2.cc\	Fi-
!	!	!	!	!LO:TX:t=P:problem:kreska pseudotaktowa	!	!	!
.	.	.	.	4d\	.	.	.
=31-	=31-	=31-	=31-	=31-	=31-	=31-	=31-
.	.	.	.	4c/	.	.	.
.	.	4A/	-li-	4d\	.	4cc\	-li-
!	!	!LO:TX:t=P:problem:kreska pseudotaktowa	!	!	!	!	!
.	.	2G/	-um	4e\	.	2b\	-um
.	.	.	.	8d\L	.	.	.
!	!	!	!	!LO:TX:t=P:problem:kreska pseudotaktowa	!	!	!
.	.	.	.	8e\J	.	.	.
.	.	4F/	De-	1.f\	.	1a\	De-
.	.	4G/	.	.	.	.	.
.	.	4A/	.	.	.	.	.
!	!	!LO:TX:t=P:problem:kreska pseudotaktowa	!	!	!	!	!
.	.	4B\	.	.	.	.	.
=32-	=32-	=32-	=32-	=32-	=32-	=32-	=32-
.	.	2c\	.	.	.	2g/	-i
!	!	!LO:TX:t=P:problem:kreska pseudotaktowa	!	!	!	!	!
.	.	2c,\	-i	2e\	-i	1cc\	U-
1r	.	2.d\	U-	2.f\	U-	.	.
!	!	!	!	!	!	!LO:SIC:v:t=custos a	!
.	.	.	.	.	.	2b-X\	-ni-
!	!	!	!	!LO:TX:t=P:problem:kreska pseudotaktowa	!	!	!
.	.	4d\	-ni	4d\	-ni-	.	.
!	!	!	!	!	!	!LO:LB:g=original	!
=33-	=33-	=33-	=33-	=33-	=33-	=33-	=33-
1r	.	1.c\	ge-	2e\	-ge-	2a\	-ge-
.	.	.	.	1f\	.	4g/	.
.	.	.	.	.	.	4f/	.
2.C/	et	.	.	.	.	2.g/	.
!	!	!LO:TX:t=P:problem:kreska pseudotaktowa	!	!LO:TX:t=P:problem:kreska pseudotaktowa	!	!	!
.	.	2c\	-ni-	2e\	.	.	.
!LO:TX:t=P:problem:kreska pseudotaktowa	!	!	!	!	!	!	!
4C/	ex	.	.	.	.	4g/	-ni-
=34-	=34-	=34-	=34-	=34-	=34-	=34-	=34-
2D/	Pa-	2F,/	-tum	4e\	.	1f/	-tum
.	.	.	.	4d\	.	.	.
2BB-X/	-tre	4F/	et	4d\	.	.	.
!	!	!LO:SIC:v:t=custos a	!	!	!	!	!
.	.	4F/	ex	8c/L	-ni-	.	.
!	!	!	!	!LO:TX:t=P:problem:kreska pseudotaktowa	!	!	!
.	.	.	.	8B/J	.	.	.
!	!	!LO:LB:g=original	!	!	!	!	!
1F\	na-	2A/	Pa-	2c/	-tum	1r	.
!	!	!LO:TX:t=P:problem:kreska pseudotaktowa	!	!	!	!	!
.	.	2F/	-tre	4c/	et	.	.
!	!	!	!	!LO:TX:t=P:problem:kreska pseudotaktowa	!	!	!
.	.	.	.	4c/	ex	.	.
=35-	=35-	=35-	=35-	=35-	=35-	=35-	=35-
!LO:TX:t=P:problem:kreska pseudotaktowa	!	!	!	!	!	!	!
1C/	-tum	2.c\	na-	2e\	Pa-	2.g/	et
!	!	!	!	!LO:TX:t=P:problem:kreska pseudotaktowa	!	!	!
.	.	.	.	2c/	-tre	.	.
.	.	4B-X\	.	.	.	4g/	ex
0r	.	2A/	.	4f\	na-	2a\	Pa-
.	.	.	.	4e\	.	.	.
!	!	!	!	!LO:TX:t=P:problem:kreska pseudotaktowa	!	!	!
.	.	4B-X\	.	[y2d\	.	2f/	-tre
!	!	!LO:TX:t=P:problem:kreska pseudotaktowa	!	!	!	!	!
.	.	4A/	.	.	.	.	.
=36-	=36-	=36-	=36-	=36-	=36-	=36-	=36-
!	!	!	!	!LO:N:xstem:cue	!	!	!
.	.	1G/	.	4d\]	.	1b-X\	na-
.	.	.	.	4c/	.	.	.
.	.	.	.	4d\	.	.	.
.	.	.	.	4e\	.	.	.
!	!	!LO:TX:t=P:problem:kreska pseudotaktowa	!	!LO:TX:t=P:problem:kreska pseudotaktowa	!	!	!
1r	.	1d\	-tum	1f\	.	2a\	-tum
.	.	.	.	.	.	1dd\	an-
=37-	=37-	=37-	=37-	=37-	=37-	=37-	=37-
2r	.	1r	.	2f,\	-tum	.	.
!	!	!	!	!LO:TX:t=P:problem:kreska pseudotaktowa	!	!	!
2D/	an-	.	.	2f\	an-	2a\	-te
2AA/	-te	1A\	an-	2c/	-te	2.cc\	om-
2.C/	om-	.	.	2.e\	om-	.	.
.	.	.	.	.	.	4cc\	-ni-
=38-	=38-	=38-	=38-	=38-	=38-	=38-	=38-
.	.	2E/	-te	.	.	2g/	-a
4C/	-ni-	.	.	4e\	-ni-	.	.
!LO:TX:t=P:problem:kreska pseudotaktowa	!	!LO:TX:t=P:problem:kreska pseudotaktowa	!	!LO:TX:t=P:problem:kreska pseudotaktowa	!	!	!
2GG/	-a	[y2G/	om-	2d\	-a	2.b-X\	Sae-
!	!	!LO:N:xstem:cue	!	!	!	!	!
2.BB-X/	Sae-	4G/]	.	2.d\	Sae-	.	.
.	.	4G/	-ni-	.	.	4a\	.
!	!	!LO:TX:t=P:problem:kreska pseudotaktowa	!	!	!	!	!
.	.	2D/	-a	.	.	4f/	.
4AA/	.	.	.	4c/	.	4g/	.
=39-	=39-	=39-	=39-	=39-	=39-	=39-	=39-
4FF/	.	2.F/	Sae-	4A/	.	2.a\	.
!	!	!	!	!LO:TX:t=P:problem:kreska pseudotaktowa	!	!	!
!	!	!	!	!LO:SIC:v:t=custos a	!	!	!
4GG/	.	.	.	4B/	.	.	.
!	!	!	!	!LO:LB:g=original	!	!	!
4AA/	.	.	.	4c/	.	.	.
!LO:TX:t=P:problem:kreska pseudotaktowa	!	!	!	!LO:TX:t=P:problem:kreska pseudotaktowa	!	!	!
4BB/	.	4F/	-cu-	4d\	.	4a\	-cu-
!	!	!LO:TX:t=P:problem:kreska pseudotaktowa	!	!	!	!	!
4C/	.	1C/	-la	2.e\	.	2g/	-la
4D/	.	.	.	.	.	.	.
4E\	.	.	.	.	.	2.cc\	Sae-
4F\	.	.	.	4e\	-cu-	.	.
=40-	=40-	=40-	=40-	=40-	=40-	=40-	=40-
!	!	!	!	!LO:TX:t=P:problem:kreska pseudotaktowa	!	!	!
4G\	.	1r	.	0d\	-la	.	.
4D/	.	.	.	.	.	4b-X\	.
1G\	.	.	.	.	.	4b-\	.
.	.	.	.	.	.	8a\L	.
.	.	.	.	.	.	8g\J	.
.	.	2r	.	.	.	2.a\	.
!LO:TX:t=P:problem:kreska pseudotaktowa	!	!	!	!	!	!	!
!LO:TX:a:t=P:problem:# above	!	!LO:TX:t=P:problem:kreska pseudotaktowa	!	!	!	!	!
2F#X\	-cu-	2d\	De-	.	.	.	.
.	.	.	.	.	.	4a\	-cu-
=41-	=41-	=41-	=41-	=41-	=41-	=41-	=41-
2G,\	-la	2d\	-um	00r	.	2b#X,\	-la
2G\	De-	2d\	de	.	.	2b#\	De-
2G\	-us	1e\	De-	.	.	2b#\	-um
!LO:SIC:v:t=custos a	!	!	!	!	!	!LO:SIC:v:t=custos c	!
2G\	de	.	.	.	.	2b#\	de
!LO:LB:g=original	!	!	!	!	!	!LO:PB:g=original	!
=42-	=42-	=42-	=42-	=42-	=42-	=42-	=42-
!	!	!LO:TX:t=P:problem:kreska pseudotaktowa	!	!	!	!	!
1A\	De-	1c\	-o	.	.	1cc\	De-
!LO:TX:t=P:problem:kreska pseudotaktowa	!	!	!	!	!	!	!
1F#X\	-o	2r	.	.	.	1a\	-o
.	.	2d\	lu-	.	.	.	.
=43-	=43-	=43-	=43-	=43-	=43-	=43-	=43-
2r	.	2B\	-men	00r	.	2r	.
!	!	!LO:TX:t=P:problem:kreska pseudotaktowa	!	!	!	!	!
2G\	lu-	2G/	de	.	.	2b\	lu-
2E\	-men	2.c\	lu-	.	.	2g/	-men
!LO:TX:t=P:problem:kreska pseudotaktowa	!	!	!	!	!	!	!
2C/	de	.	.	.	.	2e/	de
.	.	4B\	.	.	.	.	.
=44-	=44-	=44-	=44-	=44-	=44-	=44-	=44-
2.F\	la-	4A\	.	.	.	2.a\	.
.	.	8B\L	.	.	.	.	.
.	.	8c\J	.	.	.	.	.
.	.	1d\	.	.	.	.	.
8E\L	.	.	.	.	.	8g/L	.
8D\J	.	.	.	.	.	8f/J	.
2.E\	.	.	.	.	.	2.g/	lu-
!	!	!LO:SIC:v:t=custos d	!	!	!	!	!
!	!	!LO:TX:a:t=P:problem:# above	!	!	!	!	!
.	.	2c#X\	mi-	.	.	.	.
4E\	-mi-	.	.	.	.	4g/	-mi-
!	!	!LO:LB:g=original	!	!	!	!	!
=45-	=45-	=45-	=45-	=45-	=45-	=45-	=45-
!LO:TX:t=P:problem:kreska pseudotaktowa	!	!	!	!	!	!	!
1D\	-ne	2d,\	-ne	2r	.	1f-X/	-ne
.	.	1d\	De-	1f\	De-	.	.
00r	.	.	.	.	.	2r	.
!	!	!LO:TX:t=P:problem:kreska pseudotaktowa	!	!	!	!	!
!	!	!LO:TX:a:t=P:problem:# above	!	!	!	!	!
.	.	2c#X\	-um	2e\	-um	1a\	De-
=46-	=46-	=46-	=46-	=46-	=46-	=46-	=46-
.	.	2d\	Ve-	2f\	.	.	.
.	.	2B\	-rum	2d\	Ve-	2g/	-um
!	!	!LO:TX:a:t=P:problem:# above	!	!	!	!	!
.	.	2c#X\	de	2e\	.	2a\	Ve-
!	!	!LO:TX:t=P:problem:kreska pseudotaktowa	!	!	!	!	!
.	.	2d\	De-	2f\	-rum	2f/	-r(um)
=47-	=47-	=47-	=47-	=47-	=47-	=47-	=47-
.	.	2B\	-o	2d\	de	1g\	de
.	.	(1c\	Ve-	1e\	De-	.	.
0r	.	.	.	.	.	2a\	De-
.	.	2d\)	.	2f#X\	-o	2b\	-o
=48-	=48-	=48-	=48-	=48-	=48-	=48-	=48-
.	.	0e\	.	4g\	Ve-	2cc\	Ve-
.	.	.	.	4e\	.	.	.
.	.	.	.	1a\	.	4b\	.
.	.	.	.	.	.	4a\	.
2.E\	Ge-	.	.	.	.	1b\,	-ro
!	!	!	!	!LO:TX:t=P:problem:kreska pseudotaktowa	!	!	!
.	.	.	.	2g\	.	.	.
4E\	-ni-	.	.	.	.	.	.
=49-	=49-	=49-	=49-	=49-	=49-	=49-	=49-
!	!	!LO:TX:t=P:problem:kreska pseudotaktowa	!	!	!	!	!
2F#X\	-tum	1A\	-ro	2a,\	-ro	2.a\	ge-
!LO:TX:t=P:problem:kreska pseudotaktowa	!	!	!	!	!	!	!
2D/	non	.	.	2.d\	ge-	.	.
.	.	.	.	.	.	4a\	-ni-
4G\	fa-	0r	.	.	.	2b\	-tum
4F#\	.	.	.	4d\	-ni-	.	.
4E\	.	.	.	2e\	-tum	2g/	non
8F#\L	.	.	.	.	.	.	.
!LO:TX:t=P:problem:kreska pseudotaktowa	!	!	!	!	!	!	!
8G\J	.	.	.	.	.	.	.
=50-	=50-	=50-	=50-	=50-	=50-	=50-	=50-
2A\	.	.	.	2c/	non	4cc\	fa-
.	.	.	.	.	.	4b\	.
2F\	.	.	.	4f\	fa-	4a\	.
.	.	.	.	4e\	.	4g/	.
1B-X\	.	2r	.	4d\	.	4f/	.
.	.	.	.	4c/	.	4e/	.
.	.	1d\	con-	4d\	.	4f/	.
!	!	!	!	!	!	!LO:SIC:v:t=custos a	!
.	.	.	.	4e\	.	4g/	.
!	!	!	!	!	!	!LO:LB:g=original	!
=51-	=51-	=51-	=51-	=51-	=51-	=51-	=51-
!LO:TX:t=P:problem:kreska pseudotaktowa	!	!	!	!	!	!	!
1A\	-ctum	.	.	2f\	.	1a\	.
!	!	!LO:TX:t=P:problem:kreska pseudotaktowa	!	!	!	!	!
.	.	2c#X\	-ſub-	2e\	.	.	.
00r	.	2.d\	-ſtan-	2f\	-ct(um)	2a\	-ctum
.	.	.	.	2f\	con-	1a\	con
.	.	4c#\	-ti-	.	.	.	.
=52-	=52-	=52-	=52-	=52-	=52-	=52-	=52-
.	.	2B-X\	-a-	2d\	-ſub-	.	.
.	.	4c\	.	4e\	-ſtan-	2g/	ſub-
!	!	!LO:TX:t=P:problem:kreska pseudotaktowa	!	!LO:SIC:v:t=custos a	!	!	!
.	.	4B-\	.	4d\	.	.	.
!	!	!	!	!LO:PB:g=original	!	!	!
.	.	4A/	.	4c/	.	2.a\	-ſtan-
.	.	4G/	.	4B/	.	.	.
.	.	2.F/	.	4A/	.	.	.
.	.	.	.	4A/	-ti-	4a\	-ti-
=53-	=53-	=53-	=53-	=53-	=53-	=53-	=53-
.	.	.	.	2f\	-a-	2a\	-a-
.	.	4F/	-lem	.	.	.	.
.	.	4G/	Pa-	2.e\	-lem	2g/	-lem
!	!	!LO:TX:t=P:problem:kreska pseudotaktowa	!	!	!	!	!
.	.	4A/	.	.	.	.	.
!LO:TX:t=P:problem:kreska pseudotaktowa	!	!	!	!	!	!	!
1r	.	0B-X\	.	.	.	4g/	Pa-
.	.	.	.	4d\	.	4f/	.
.	.	.	.	1d\	Pa-	4e/	.
.	.	.	.	.	.	4d/	.
=54-	=54-	=54-	=54-	=54-	=54-	=54-	=54-
2r	.	.	.	.	.	1e/	.
!	!	!	!	!LO:TX:t=P:problem:kreska pseudotaktowa	!	!	!
!	!	!	!	!LO:TX:a:t=P:problem:# below	!	!	!
2A\	per-	.	.	2c#X/	.	.	.
!LO:TX:a:t=P:problem:# above	!	!LO:TX:a:t=d	!	!	!	!	!
2F#X\	-que	2D/	-tri	2d,\	-tri	1d/	-tri
!	!	!LO:TX:t=P:problem:kreska pseudotaktowa	!	!	!	!	!
2.G\	om-	2r	.	2d\	per	.	.
=55-	=55-	=55-	=55-	=55-	=55-	=55-	=55-
.	.	2r	.	2B/	quem	2r	.
4G\	-ni-	.	.	.	.	.	.
!LO:TX:t=P:problem:kreska pseudotaktowa	!	!	!	!	!	!	!
2E\	-a	2c\	per	2.c/	om-	2ee\	per
4F\	fa-	2A/	quem	.	.	2cc\	quem
!LO:SIC:v:t=custos d	!	!	!	!	!	!	!
4E\	.	.	.	4c/	-ni-	.	.
4D/	.	4B\	om-	2f\	-a	2.dd\	om-
!LO:LB:g=original	!	!LO:TX:t=P:problem:kreska pseudotaktowa	!	!	!	!	!
8C/L	.	4A/	-ni-	.	.	.	.
!LO:TX:t=P:problem:kreska pseudotaktowa	!	!	!	!	!	!	!
8D/J	.	.	.	.	.	.	.
=56-	=56-	=56-	=56-	=56-	=56-	=56-	=56-
1.E\	.	4G#/	-a	1.e\	fac-	.	.
!	!	!LO:SIC:v:t=custos a	!	!	!	!	!
.	.	4E/	fa-	.	.	4dd\	-ni-
!	!	!LO:LB:g=original	!	!	!	!	!
.	.	(<1A\	-cta	.	.	2cc\	-a
.	.	.	.	.	.	2.b\	fac-
!	!	!LO:TX:t=P:problem:kreska pseudotaktowa	!	!	!	!	!
2E\	-cta	2Gny/)	.	2e\	-ta	.	.
.	.	.	.	.	.	4b\	-ta
=57-	=57-	=57-	=57-	=57-	=57-	=57-	=57-
2AA,/	sunt.	1A\,	sunt,	1e\,	ſunt.	1cc\	Sunt.
!LO:TX:t=P:problem:kreska pseudotaktowa	!	!	!	!	!	!	!
2A\	Qui	.	.	.	.	.	.
4D/	pro-	2d\	Qui	1f\	Qui	1r	.
4E\	.	.	.	.	.	.	.
4F\	.	(<4A/	pro-	.	.	.	.
!	!	!LO:TX:t=P:problem:kreska pseudotaktowa	!	!	!	!	!
4G\	.	4B\)	.	.	.	.	.
=58-	=58-	=58-	=58-	=58-	=58-	=58-	=58-
!LO:TX:t=P:problem:kreska pseudotaktowa	!	!	!	!	!	!	!
1A\	.	1.c\	pter	4c/	pro-	2r	.
.	.	.	.	4d\	.	.	.
.	.	.	.	4e\	.	2cc\	Qui
.	.	.	.	4f\	.	.	.
4E\	.	.	.	4g\	.	4g\	pro-
4F\	.	.	.	4f\	.	4a\	.
2G\	.	2B\	nos	2.d\	.	4b\	.
.	.	.	.	.	.	4cc\	.
=59-	=59-	=59-	=59-	=59-	=59-	=59-	=59-
2G\	-pter	(2B\	ho-	.	.	2dd\	.
.	.	.	.	4e\	-pter	.	.
!LO:TX:t=P:problem:kreska pseudotaktowa	!	!	!	!	!	!	!
2F\	nos	1d\)	.	2f\	nos	4dd\	-pter
.	.	.	.	.	.	4dd\	nos
2.E\	ho-	.	.	2.g\	ho-	2.ee\	ho-
!	!	!LO:TX:t=P:problem:kreska pseudotaktowa	!	!	!	!	!
.	.	2c\	-mi-	.	.	.	.
4E\	-mi-	.	.	4g\	-mi-	4ee\	-mi-
=60-	=60-	=60-	=60-	=60-	=60-	=60-	=60-
!	!	!	!	!	!	!LO:SIC:v:t=custos g	!
2D,/	-nes	1d\	-nes	1f#X\	-nes	1a\	-nes
!LO:TX:t=P:problem:kreska pseudotaktowa	!	!	!	!	!	!	!
2D/	et	.	.	.	.	.	.
!	!	!LO:TX:t=P:problem:kreska pseudotaktowa	!	!	!	!LO:LB:g=original	!
2E\	pro-	1r	.	1r	.	00r	.
!LO:TX:a:t=P:problem:# above	!	!	!	!	!	!	!
2F#X\	-pter	.	.	.	.	.	.
=61-	=61-	=61-	=61-	=61-	=61-	=61-	=61-
1.G\	no-	2r	.	2r	.	.	.
.	.	2B\	et	2d\	et	.	.
!	!	!LO:TX:a:t=P:problem:# above	!	!	!	!	!
.	.	2c#X\	pro-	2e\	pro-	.	.
!LO:TX:a:t=P:problem:# above	!	!LO:TX:a:t=P:problem:# above	!	!	!	!	!
!LO:TX:t=P:problem:kreska pseudotaktowa	!	!LO:TX:t=P:problem:kreska pseudotaktowa	!	!	!	!	!
2F#X\	.	2d#X\	-pter	2f#X\	-pter	.	.
=62-	=62-	=62-	=62-	=62-	=62-	=62-	=62-
4E\	.	1.e\	no-	1.g\	no-	.	.
!LO:TX:a:t=P:problem:# above	!	!	!	!	!	!	!
4F#X\	.	.	.	.	.	.	.
4G\	.	.	.	.	.	.	.
4A\	.	.	.	.	.	.	.
2B\	.	.	.	.	.	1r	.
!	!	!	!	!LO:SIC:v:t=custos c	!	!	!
!	!	!	!	!LO:TX:a:t=P:problem:# above	!	!	!
4B\	-ſtram	1d\	.	2f#X\	.	.	.
!LO:TX:t=P:problem:kreska pseudotaktowa	!	!	!	!	!	!	!
4B\	sa-	.	.	.	.	.	.
!	!	!	!	!LO:LB:g=original	!	!	!
=63-	=63-	=63-	=63-	=63-	=63-	=63-	=63-
(<1.c\	-lu-	.	.	1.e\	-ſtr(am)	2r	.
.	.	4c\	.	.	.	2g/	et
.	.	4d\	.	.	.	.	.
.	.	4e\	.	.	.	2a\	pro-
.	.	4f\	.	.	.	.	.
2B\)	.	2g\	.	2d\	et	2b\	-pter
=64-	=64-	=64-	=64-	=64-	=64-	=64-	=64-
!LO:TX:t=P:problem:kreska pseudotaktowa	!	!	!	!	!	!	!
!LO:SIC:v:t=custos g	!	!LO:TX:t=P:problem:kreska pseudotaktowa	!	!	!	!	!
1A\	.	1c\	-ſtram	2e\	pro-	1cc\	noſ-
!	!	!	!	!LO:TX:a:t=P:problem:# above	!	!	!
.	.	.	.	2f#X\	-pter	.	.
!LO:LB:g=original	!	!	!	!	!	!	!
1G\	-tem	2r	.	1g\	noſ-	2b,\	-tram
*	*	*	*	*	*	*	*ij
.	.	2G/	et	.	.	2b\	et
=65-	=65-	=65-	=65-	=65-	=65-	=65-	=65-
!	!	!	!	!LO:N:acc=-	!	!	!
00r	.	2A/	p(ro)-	2fn\	-tram	2cc\	pro-
!	!	!LO:TX:t=P:problem:kreska pseudotaktowa	!	!	!	!	!
.	.	2B\	-p(ter)	2f\	ſa-	2dd\	-pter
.	.	1c\	noſ-	1e\	-lu-	1g\	noſ-
=66-	=66-	=66-	=66-	=66-	=66-	=66-	=66-
.	.	2c\	-tram	2f#X,\	-tem	2a,\	-tram
*	*	*	*	*	*	*	*Xij
.	.	2B\	ſa-	2g\	no-	2b\	Sa-
.	.	0d\	-lu-	(4f#X\	-ſtr(am)	(2a\	-lu-
.	.	.	.	4d\)	.	.	.
.	.	.	.	1g\	ſa-	2g/)	.
=67-	=67-	=67-	=67-	=67-	=67-	=67-	=67-
2r	.	.	.	.	.	1a\	.
!LO:TX:t=P:problem:kreska pseudotaktowa	!	!	!	!LO:TX:a:t=P:problem:# below	!	!	!
2D/	de	.	.	2f#X\	-lu-	.	.
4G\	ſcen-	2d\	-tem	1g\	-t(em)	2b,\	-tem
4F\	.	.	.	.	.	.	.
!	!	!LO:TX:t=P:problem:kreska pseudotaktowa	!	!	!	!	!
4E\	.	2r	.	.	.	2b\	de
!LO:TX:t=P:problem:kreska pseudotaktowa	!	!	!	!	!	!	!
4D/	.	.	.	.	.	.	.
=68-	=68-	=68-	=68-	=68-	=68-	=68-	=68-
4C/	.	1r	.	0r	.	2.ee\	Scen-
4AA/	.	.	.	.	.	.	.
1A\	.	.	.	.	.	.	.
.	.	.	.	.	.	4dd\	.
.	.	2E/	de	.	.	2cc\	.
4G#X\	-dit	4e\	ſcen-	.	.	2b\	.
!LO:TX:t=P:problem:kreska pseudotaktowa	!	!	!	!	!	!	!
4G#\	de	4d\	.	.	.	.	.
=69-	=69-	=69-	=69-	=69-	=69-	=69-	=69-
4A\	cae-	4c\	.	2A/	de-	2cc\	-dit
4G\	.	4B\	.	.	.	.	.
!	!	!LO:SIC:v:t=custos b-	!	!	!	!	!
4F\	.	1A\	.	4a\	-ſcen-	2r	.
!LO:TX:t=P:problem:kreska pseudotaktowa	!	!	!	!	!	!	!
4E\	.	.	.	4g\	.	.	.
4D/	.	.	.	4f\	.	2d/	de
4C/	.	.	.	4e\	.	.	.
!	!	!LO:PB:g=original	!	!	!	!	!
4BB-X/	.	1B-X\	-dit	2.d\	.	4dd\	cae-
!LO:TX:t=P:problem:kreska pseudotaktowa	!	!	!	!	!	!	!
4AA/	.	.	.	.	.	4cc\	.
=70-	=70-	=70-	=70-	=70-	=70-	=70-	=70-
2GG/	.	.	.	.	.	2b-X\	.
.	.	.	.	4e\	.	.	.
!	!	!LO:TX:t=P:problem:kreska pseudotaktowa	!	!	!	!	!
2FF/	.	2d\	de	2.f\	.	1a\	.
1BB-X/	.	1.d\	Cae-	.	.	.	.
.	.	.	.	4e\	.	.	.
.	.	.	.	4d\	dit	2g/	.
.	.	.	.	4e\	.	.	.
=71-	=71-	=71-	=71-	=71-	=71-	=71-	=71-
0AA/;	-lis.	.	.	2f\	de-	0a\;<	-lis.
.	.	4c\	.	4e\	-cae-	.	.
.	.	4B\	.	4d\	.	.	.
!	!	!	!	!LO:N:vis=0	!	!	!
.	.	1c#X\;	-lis.	1e\;<	-lis.	.	.
!	!	!	!	!LO:LB:g=original	!	!LO:LB:g=original	!
=72||-	=72||-	=72||-	=72||-	=72||-	=72||-	=72||-	=72||-
*M2/1	*	*M2/1	*	*M2/1	*	*M2/1	*
*met(C|)	*	*met(C|)	*	*met(C|)	*	*met(C|)	*
!LO:TX:b:t=Et incarnat(us)	!	!	!	!	!	!	!
00r	.	1d\	Et	1f-X\	Et	1a\	Et
.	.	2d\	in-	2f-\	in-	1.a\	in-
!	!	!LO:TX:t=P:problem:kreska pseudotaktowa	!	!	!	!	!
!	!	!LO:TX:a:t=P:problem:# above	!	!	!	!	!
.	.	2c#X\	-car-	2e\	-car-	.	.
=73-	=73-	=73-	=73-	=73-	=73-	=73-	=73-
.	.	2.d\	-na-	2.f\	-na-	.	.
.	.	.	.	.	.	2d/	-car-
.	.	4c\	.	4e\	.	.	.
.	.	2B-X\	.	4d\	.	2g/	.
.	.	.	.	4e\	.	.	.
!	!	!LO:TX:t=P:problem:kreska pseudotaktowa	!	!	!	!	!
.	.	2A/	.	1f\	.	2f/	.
=74-	=74-	=74-	=74-	=74-	=74-	=74-	=74-
00r	.	2.G/	.	.	.	2.b-X\	-na-
.	.	.	.	2e\	-t(us)	.	.
.	.	4G/	-tus	.	.	4b-\	-tus
.	.	4F/	eſt	1f\,	eſt	1a\	eſt
.	.	4G/	.	.	.	.	.
.	.	4A/	.	.	.	.	.
!	!	!LO:TX:t=P:problem:kreska pseudotaktowa	!	!	!	!	!
.	.	4B\	.	.	.	.	.
=75-	=75-	=75-	=75-	=75-	=75-	=75-	=75-
.	.	1c\	.	1e\	de	2g/	de
.	.	.	.	.	.	2.a\	Spi-
!	!	!LO:TX:t=P:problem:kreska pseudotaktowa	!	!	!	!	!
.	.	1d\	de	2.f\	Spi-	.	.
.	.	.	.	.	.	4g/	.
.	.	.	.	.	.	4a\	.
.	.	.	.	4f\	-ri-	4b\	.
=76-	=76-	=76-	=76-	=76-	=76-	=76-	=76-
00r	.	2A/	Spi-	2e\	-tu	2.cc\	.
.	.	4A/	-ri-	4a\	San-	.	.
!	!	!LO:TX:t=P:problem:kreska pseudotaktowa	!	!	!	!	!
.	.	4A/	-tu	4g\	.	4cc\	-ri-
.	.	2d\	San-	4f\	.	2b\	-tu
.	.	.	.	8e\L	.	.	.
.	.	.	.	8d\J	.	.	.
.	.	2c\	.	4e\	.	2.cc\	San-
.	.	.	.	8f\L	.	.	.
.	.	.	.	8g\J	.	.	.
=77-	=77-	=77-	=77-	=77-	=77-	=77-	=77-
*	*	*lig	*	*	*	*	*
.	.	1f\	.	1.a\	.	.	.
.	.	.	.	.	.	8b\L	.
.	.	.	.	.	.	8cc\J	.
.	.	.	.	.	.	4dd\	.
.	.	.	.	.	.	4a\	.
.	.	1e\	.	.	.	4cc\	.
.	.	.	.	.	.	8b\L	.
.	.	.	.	.	.	8a\J	.
.	.	.	.	2g#X\	.	2b\	.
!	!	!	!	!LO:TX:a:t=P:problem:# below	!	!	!
*	*	*Xlig	*	*	*	*	*
=78-	=78-	=78-	=78-	=78-	=78-	=78-	=78-
!	!	!LO:SIC:v:t=custos e	!	!	!	!	!
!	!	!LO:TX:t=P:problem:kreska pseudotaktowa	!	!	!	!	!
2r	.	1A\	-cto	1a\	-cto	1a\	-cto
1A\	Ex	.	.	.	.	.	.
!	!	!LO:LB:g=original	!	!	!	!	!
.	.	2r	.	00r	.	00r	.
!LO:TX:t=P:problem:kreska pseudotaktowa	!	!	!	!	!	!	!
!LO:TX:b:t=P:problem:# below	!	!	!	!	!	!	!
2G#X\	Ma-	1e\	ex	.	.	.	.
=79-	=79-	=79-	=79-	=79-	=79-	=79-	=79-
2A\	-ri-	.	.	.	.	.	.
!	!	!LO:TX:t=P:problem:kreska pseudotaktowa	!	!	!	!	!
2F\	-a	2d\	Ma-	.	.	.	.
4E\	Vir-	2e\	-ri-	.	.	.	.
8F\L	.	.	.	.	.	.	.
8G\J	.	.	.	.	.	.	.
!	!	!LO:TX:t=P:problem:kreska pseudotaktowa	!	!	!	!	!
1A\	.	2c\	-a	.	.	.	.
=80-	=80-	=80-	=80-	=80-	=80-	=80-	=80-
.	.	2.B\	Vir-	.	.	.	.
!LO:TX:t=P:problem:kreska pseudotaktowa	!	!	!	!	!	!	!
2G\	.	.	.	.	.	.	.
.	.	4c\	.	.	.	.	.
2.F\	.	4d\	.	0r	.	2r	.
.	.	4A\	.	.	.	.	.
.	.	4d\	.	.	.	1a\	Ex
!LO:TX:t=P:problem:kreska pseudotaktowa	!	!	!	!	!	!	!
4F\	-gi-	8c\L	.	.	.	.	.
!	!	!LO:TX:t=P:problem:kreska pseudotaktowa	!	!	!	!	!
.	.	8B\J	.	.	.	.	.
=81-	=81-	=81-	=81-	=81-	=81-	=81-	=81-
2E\	-ne	4c\	.	.	.	.	.
.	.	8B\L	.	.	.	.	.
.	.	8A\J	.	.	.	.	.
!	!	!	!	!	!	!LO:TX:a:t=P:problem:# above	!
2E\	et	4.B\	.	.	.	2g#X/	Ma-
.	.	8B\	-gi-	.	.	.	.
!	!	!LO:TX:t=P:problem:kreska pseudotaktowa	!	!	!	!	!
2F\	Ho-	1A\	-ne	2r	.	2a\	-ri-
!LO:TX:t=P:problem:kreska pseudotaktowa	!	!	!	!	!	!	!
2D/	-mo	.	.	1d\	Ex	2f/	-a
=82-	=82-	=82-	=82-	=82-	=82-	=82-	=82-
2A\	fac-	1r	.	.	.	2.e/	Vir-
!	!	!	!	!LO:TX:a:t=P:problem:# below	!	!	!
2AA/	-t(us)	.	.	2c#X/	Ma-	.	.
!	!	!	!	!	!	!LO:SIC:v:t=custos f	!
.	.	.	.	.	.	4e/	-gi-
!LO:TX:t=P:problem:kreska pseudotaktowa	!	!	!	!	!	!LO:LB:g=original	!
1D\	eſt.	2r	.	2d\	-ri-	2.f/	-ne
.	.	1d\	ex	2f\	-a	.	.
.	.	.	.	.	.	4g/	.
=83-	=83-	=83-	=83-	=83-	=83-	=83-	=83-
00r	.	.	.	2.e\	Vir-	1.a\	.
!	!	!LO:TX:t=P:problem:kreska pseudotaktowa	!	!	!	!	!
!	!	!LO:TX:a:t=P:problem:# above	!	!	!	!	!
.	.	2c#X\	Ma-	.	.	.	.
.	.	.	.	4e\	-gi-	.	.
.	.	2d\	-ri-	4f\	-ne	.	.
!	!	!	!	!LO:SIC:v:t=custos b	!	!	!
.	.	.	.	4e\	.	.	.
!	!	!	!	!LO:LB:g=original	!	!	!
.	.	2B-X\	-a	4d\	.	1g\	Ex
.	.	.	.	8c/L	.	.	.
.	.	.	.	8B-X/J	.	.	.
=84-	=84-	=84-	=84-	=84-	=84-	=84-	=84-
!	!	!LO:TX:t=P:problem:kreska pseudotaktowa	!	!	!	!	!
.	.	1A\	Vir-	2.c/	Vir-	.	.
!	!	!	!	!	!	!LO:TX:b:t=P:problem:# below	!
.	.	.	.	.	.	2f#X/	Ma-
.	.	.	.	8B-X/L	.	.	.
.	.	.	.	8A/J	.	.	.
*	*	*lig	*	*	*	*	*
*	*	*col	*	*	*	*	*
.	.	1G/	.	4B-/	.	2.g/	-ri
.	.	.	.	4c/	.	.	.
.	.	.	.	1d\	.	.	.
.	.	.	.	.	.	4f#/	.
=85-	=85-	=85-	=85-	=85-	=85-	=85-	=85-
2r	.	2.A\	.	.	.	2e/	Vir-
!LO:TX:t=P:problem:kreska pseudotaktowa	!	!	!	!	!	!	!
2AA/	et	.	.	2c/	-gi-	2e/	-gi-
*	*	*Xlig	*	*	*	*	*
.	.	4A\	-gi-	.	.	.	.
*	*	*Xcol	*	*	*	*	*
!	!	!LO:TX:t=P:problem:kreska pseudotaktowa	!	!	!	!	!
2D/	Ho-	1A\	-ne	2d\	-ne	2f/	.
!LO:TX:t=P:problem:kreska pseudotaktowa	!	!	!	!	!	!	!
2C/	-mo	.	.	4r	.	2e,/	-ne
.	.	.	.	2A/	Et	.	.
=86-	=86-	=86-	=86-	=86-	=86-	=86-	=86-
2F\	fa-	1r	.	.	.	2a\	Et
.	.	.	.	2d\	Ho-	.	.
2E\	.	.	.	.	.	2g/	Ho-
!	!	!	!	!LO:TX:a:t=P:problem:# below	!	!	!
.	.	.	.	4c#X/	.	.	.
2D/	.	2D/	Et	2d\	-mo	2f/	-mo
!LO:TX:t=P:problem:kreska pseudotaktowa	!	!	!	!	!	!	!
!LO:TX:b:t=P:problem:# below	!	!	!	!	!	!	!
2C#X/	.	1A\	Ho-	2e\	Fa-	1e/	fac-
=87-	=87-	=87-	=87-	=87-	=87-	=87-	=87-
2.D/	.	.	.	2.f\	.	.	.
.	.	2F/	-mo	.	.	2d,/	-tus
4C/	.	.	.	4e\	.	.	.
*	*	*lig	*	*	*	*	*
4BB-X/	.	1B-X\	.	0d\	-ctus	1g\	Et
4AA/	.	.	.	.	.	.	.
1GG/	.	.	.	.	.	.	.
=88-	=88-	=88-	=88-	=88-	=88-	=88-	=88-
.	.	1.A\	.	.	.	2a\	Ho-
!LO:TX:t=P:problem:kreska pseudotaktowa	!	!	!	!	!	!	!
!LO:SIC:v:t=custos g	!	!	!	!	!	!	!
2FF/	.	.	.	.	.	2d/	-mo
!LO:LB:g=original	!	!	!	!	!	!	!
*	*	*Xlig	*	*	*	*	*
1.GG/	.	.	.	0.d\	est.	1.b-X\	fac-
.	.	4G/	Fa-	.	.	.	.
!	!	!LO:TX:t=P:problem:kreska pseudotaktowa	!	!	!	!	!
.	.	4F/	.	.	.	.	.
=89-	=89-	=89-	=89-	=89-	=89-	=89-	=89-
!	!	!	!	!LO:TX:b:t=a.3.Vol	!	!	!
.	.	2.G/	.	.	.	.	.
2GG/	-ctus	.	.	.	.	2b-y\	-tus
.	.	4G/	-ctus	.	.	.	.
!LO:N:vis=0	!	!LO:N:vis=0	!	!	!	!	!
1D\;<	est	1F#X/	eſt.	.	.	1a\;	eſt.
!	!	!	!	!	!	!LO:LB:g=original	!
!	!	!LO:LB:g=original	!	!LO:LB:g=original	!	!	!
=90||-	=90||-	=90||-	=90||-	=90||-	=90||-	=90||-	=90||-
*	*	*	*	*M2/1	*	*M2/1	*
!LO:TX:a:t=Crucifixus Tacet	!	!LO:TX:a:t=a. 3.	!	!	!	!	!
0ryy	.	00r	.	1d\	CRu-	0r	.
.	.	.	.	2A/	-ci-	.	.
.	.	.	.	1d\	-fix-	.	.
=91-	=91-	=91-	=91-	=91-	=91-	=91-	=91-
0ryy	.	.	.	.	.	1a\	CRu-
.	.	.	.	2c/	-us	.	.
.	.	.	.	2.f\	e-	2d/	-ci-
.	.	.	.	.	.	1a\	-fix-
.	.	.	.	4e\	-ti-	.	.
=92-	=92-	=92-	=92-	=92-	=92-	=92-	=92-
0ryy	.	0r	.	4d\	-am	.	.
.	.	.	.	4c/	.	.	.
.	.	.	.	4B-X/	.	2g/	-us
.	.	.	.	4A/	.	.	.
.	.	.	.	4G/	.	2.b-\	e-
.	.	.	.	4G/	pro	.	.
.	.	.	.	2.g\	no-	.	.
.	.	.	.	.	.	4b-\	-ti-
=93-	=93-	=93-	=93-	=93-	=93-	=93-	=93-
0ryy	.	1r	.	.	.	4a\	-am
.	.	.	.	4f\	.	4d/	pro
.	.	.	.	4f\	.	1dd\	no-
.	.	.	.	8e\L	.	.	.
.	.	.	.	8d\J	.	.	.
.	.	1A\	CRu-	1e\	.	.	.
!	!	!	!	!	!	!LO:TX:b:t=P:problem:# below	!
.	.	.	.	.	.	2cc#X\	.
=94-	=94-	=94-	=94-	=94-	=94-	=94-	=94-
0ryy	.	2D/	-ci-	1f\	-bis	2dd\	.
!	!	!	!	!	!	!LO:N:acc=-	!
.	.	1A\	-fix-	.	.	4ccn\	.
.	.	.	.	.	.	4b\	.
.	.	.	.	2e\	pro	4cc\	.
.	.	.	.	.	.	4b\	.
.	.	2F/	-us	4f\	.	1a\	.
.	.	.	.	4e\	.	.	.
=95-	=95-	=95-	=95-	=95-	=95-	=95-	=95-
0ryy	.	2.B-X\	e-	4d\	no-	.	.
.	.	.	.	4c/	.	.	.
.	.	.	.	4d\	.	2g/	.
.	.	4B-\	-ti-	4e\	.	.	.
*	*	*	*	*lig	*	*	*
.	.	4A/	-am	1f\	.	2.a\	.
.	.	4D/	pro	.	.	.	.
.	.	1d\	no-	.	.	.	.
.	.	.	.	.	.	8g/L	.
.	.	.	.	.	.	8f/J	.
=96-	=96-	=96-	=96-	=96-	=96-	=96-	=96-
0ryy	.	.	.	1.e\	.	4g/	.
.	.	.	.	.	.	4e/	.
.	.	2c\	.	.	.	4a\	.
.	.	.	.	.	.	4g/	.
*	*	*lig	*	*Xlig	*	*	*
.	.	1d\	.	.	.	2.f/	.
.	.	.	.	1d\	.	.	.
.	.	.	.	.	.	8e/L	.
.	.	.	.	.	.	8d/J	.
=97-	=97-	=97-	=97-	=97-	=97-	=97-	=97-
0ryy	.	1A\	.	.	.	1e/	.
.	.	.	.	2c#X/	.	.	.
!	!	!	!	!LO:TX:a:t=P:problem:# below	!	!	!
*	*	*Xlig	*	*	*	*	*
.	.	2D,/	bis	2d\	-bis	1d/	bis
.	.	2d\	Sub	2f\	Sub	.	.
=98-	=98-	=98-	=98-	=98-	=98-	=98-	=98-
0ryy	.	2c\	Pon-	2e\	Pon-	2r	.
!	!	!	!	!LO:SIC:v:t=custos c	!	!	!
.	.	2B\	-ti-	2d\	-ti-	2dd\	Sub
!	!	!	!	!LO:LB:g=original	!	!	!
.	.	2A/	-o	2.e\	-o	2cc\	Pon-
!	!	!	!	!	!	!LO:TX:a:t=a 3.	!
!	!	!LO:TX:a:t=P:problem:# below	!	!	!	!LO:SIC:v:t=custos a	!
.	.	2G#X/	Pi-	.	.	2b\	-ti-
.	.	.	.	4d\	.	.	.
!	!	!	!	!	!	!LO:PB:g=original	!
=99-	=99-	=99-	=99-	=99-	=99-	=99-	=99-
0ryy	.	4A/	-la-	4c/	Pi-	2.a\	-o
.	.	4B\	.	4d\	.	.	.
.	.	4c\	.	4e\	.	.	.
.	.	4d\	.	4f\	.	4a\	Pi-
*	*	*lig	*	*	*	*	*
.	.	1B-X\	.	2.d\	-la-	4a\	-la-
.	.	.	.	.	.	8g/L	.
.	.	.	.	.	.	8f/J	.
.	.	.	.	.	.	2g/	.
.	.	.	.	4e\	.	.	.
=100-	=100-	=100-	=100-	=100-	=100-	=100-	=100-
*	*	*col	*	*	*	*	*
0ryy	.	2.A\	.	4f\	.	2.a\	.
.	.	.	.	4c/	.	.	.
.	.	.	.	1f\	.	.	.
*	*	*Xlig	*	*	*	*	*
.	.	4B\	.	.	.	8g/L	.
.	.	.	.	.	.	8f/J	.
*	*	*Xcol	*	*	*	*	*
.	.	1c\	.	.	.	1g\	.
.	.	.	.	2e\	.	.	.
=101-	=101-	=101-	=101-	=101-	=101-	=101-	=101-
0ryy	.	1F/	-to	2f,\	-to	2a\	-to
.	.	.	.	1f\	Paſ-	1a\	Pas-
.	.	2r	.	.	.	.	.
.	.	1c\	Paſ-	4e\	.	4g/	.
.	.	.	.	4d\	.	4f/	.
=102-	=102-	=102-	=102-	=102-	=102-	=102-	=102-
0ryy	.	.	.	2e\	.	1.g\	.
.	.	4B\	.	4d\	.	.	.
.	.	4A\	.	4c/	.	.	.
.	.	2B\	.	2d\	.	.	.
!	!	!LO:SIC:v:t=custos f	!	!	!	!	!
.	.	2c\	.	2e,\	-sus	2g/	-sus
!	!	!LO:LB:g=original	!	!	!	!	!
=103-	=103-	=103-	=103-	=103-	=103-	=103-	=103-
0ryy	.	4F/	.	1.f\	et	1.a\	et
.	.	4G/	.	.	.	.	.
.	.	4A/	.	.	.	.	.
.	.	4B\	.	.	.	.	.
.	.	2c\	.	.	.	.	.
.	.	2c\	ſus	1e\	Se-	2g/	Se-
=104-	=104-	=104-	=104-	=104-	=104-	=104-	=104-
*	*	*	*	*	*	*lig	*
0ryy	.	4d\	et	.	.	1f/	-pul-
.	.	4c\	.	.	.	.	.
.	.	4B-X\	ſe-	1d\	-pul-	.	.
.	.	4A/	.	.	.	.	.
*	*	*	*	*	*	*col	*
.	.	2G/	-pul-	.	.	2.e/	.
.	.	2A/	-tus	2c#X/	-t(us)	.	.
!	!	!	!	!LO:TX:a:t=P:problem:# below	!	!	!
*	*	*	*	*	*	*Xlig	*
.	.	.	.	.	.	4e/	-t(us)
*	*	*	*	*	*	*Xcol	*
=105-	=105-	=105-	=105-	=105-	=105-	=105-	=105-
0ryy	.	1D/	eſt.	2d,\	eſt	2d/	est,
.	.	.	.	1f\	Paſ-	2a\	Pas-
.	.	1r	.	.	.	2d/	-sus
.	.	.	.	4e\	.	1dd\	et
.	.	.	.	4d\	.	.	.
=106-	=106-	=106-	=106-	=106-	=106-	=106-	=106-
0ryy	.	1A\	Paſ-	2e\	.	.	.
.	.	.	.	4a\	.	1cc\	.
.	.	.	.	4g\	.	.	.
.	.	2D/	-sus	4f\	.	.	.
.	.	.	.	4e\	.	.	.
.	.	1d\	et	1f\	.	4b-X\	Se-
.	.	.	.	.	.	4a\	.
=107-	=107-	=107-	=107-	=107-	=107-	=107-	=107-
0ryy	.	.	.	.	.	2b-X\	.
.	.	2c\	Se-	2e,\	-sus	2a\	.
*	*	*	*	*	*	*lig	*
.	.	2f\	-pul-	2d\	et	1a\	pul-
!	!	!	!	!LO:SIC:v:t=custos c	!	!	!
.	.	2.e\	.	2c/	Se-	.	.
!	!	!	!	!LO:PB:g=original	!	!	!
=108-	=108-	=108-	=108-	=108-	=108-	=108-	=108-
0ryy	.	.	.	4c/	-pul-	1.g\	.
.	.	4d\	.	4B-X/	.	.	.
.	.	4d\	.	4B-/	.	.	.
.	.	8c\L	.	8A/L	.	.	.
.	.	8B-X\J	.	8G/J	.	.	.
*	*	*	*	*	*	*Xlig	*
.	.	2.c\	.	2.A/	.	.	.
.	.	.	.	.	.	2f/	-t(us)
.	.	4c\	-tus	4A/	-tus	.	.
=109-	=109-	=109-	=109-	=109-	=109-	=109-	=109-
0ryy	.	2B-X\	eſt	2G,/	eſt	1g\	eſt.
.	.	1G/	Paſ-	1B-X/	Paſ-	.	.
.	.	.	.	.	.	1r	.
!	!	!LO:TX:a:t=P:problem:# below	!	!	!	!	!
.	.	4F#X/	.	4A/	.	.	.
.	.	4E/	.	4G/	.	.	.
=110-	=110-	=110-	=110-	=110-	=110-	=110-	=110-
*	*	*lig	*	*	*	*	*
!	!	!	!	!	!	!LO:SIC:v:t=custos d	!
0ryy	.	1F/	.	4A/	.	1a\	Pas-
.	.	.	.	4D/	.	.	.
.	.	.	.	4d\	.	.	.
.	.	.	.	4c/	.	.	.
!	!	!	!	!	!	!LO:LB:g=original	!
.	.	1G/	.	4B/	.	2d/	-sus
.	.	.	.	4A/	.	.	.
.	.	.	.	1B/	.	1g\	et
*	*	*Xlig	*	*	*	*	*
=111-	=111-	=111-	=111-	=111-	=111-	=111-	=111-
0ryy	.	1D/	-sus	.	.	.	.
.	.	.	.	2A/	-ſus	2f#X/	ſe
.	.	1.G/	et	4G/	et	1.b-X\	pul-
.	.	.	.	4A/	.	.	.
.	.	.	.	4B-X/	.	.	.
.	.	.	.	4c/	.	.	.
=112-	=112-	=112-	=112-	=112-	=112-	=112-	=112-
0ryy	.	.	.	4d\	.	.	.
.	.	.	.	4e\	.	.	.
.	.	2F/	ſe-	1f\	.	1a\	.
*	*	*lig	*	*	*	*	*
.	.	1B-X\	-pul-	.	.	.	.
.	.	.	.	4e\	Se-	2.g/	.
.	.	.	.	4d\	.	.	.
=113-	=113-	=113-	=113-	=113-	=113-	=113-	=113-
!	!	!	!	!LO:TX:a:t=P:problem:# below	!	!	!
0ryy	.	1.A\	.	4c#X/	.	.	.
.	.	.	.	4A/	.	4f/	.
.	.	.	.	1d\	-pul-	4e/	.
.	.	.	.	.	.	4d/	.
.	.	.	.	.	.	2.e/	.
*	*	*Xlig	*	*	*	*	*
!	!	!	!	!LO:TX:a:t=P:problem:# below	!	!	!
.	.	2A/	-t(us)	2c#X/	-t(us)	.	.
.	.	.	.	.	.	4e/	-tus
=114-	=114-	=114-	=114-	=114-	=114-	=114-	=114-
0ryy	.	0D/;	eſt	0d\	eſt.	0d/;	eſt.
!LO:LB:g=original	!	!LO:LB:g=original	!	!LO:LB:g=original	!	!	!
=115||-	=115||-	=115||-	=115||-	=115||-	=115||-	=115||-	=115||-
*M2/1	*	*M2/1	*	*M2/1	*	*M2/1	*
*met(C|)	*	*met(C|)	*	*met(C|)	*	*met(C|)	*
!	!	!LO:TX:a:t=iedna	!	!	!	!	!
1D\	Et	1r	.	00r	.	00r	.
2C/	re-	1A\	Et	.	.	.	.
!LO:TX:t=P:problem:kreska pseudotaktowa	!	!	!	!	!	!	!
2F\	-ſur-	.	.	.	.	.	.
=116-	=116-	=116-	=116-	=116-	=116-	=116-	=116-
4E\	-re-	2G/	re-	.	.	.	.
8F\L	.	.	.	.	.	.	.
8G\J	.	.	.	.	.	.	.
!	!	!LO:TX:t=P:problem:kreska pseudotaktowa	!	!	!	!	!
1A\	.	2c\	-ſur-	.	.	.	.
.	.	4B\	-re-	.	.	.	.
.	.	8c\L	.	.	.	.	.
.	.	8d\J	.	.	.	.	.
!LO:TX:t=P:problem:kreska pseudotaktowa	!	!	!	!	!	!	!
2G\	.	1e\	.	.	.	.	.
=117-	=117-	=117-	=117-	=117-	=117-	=117-	=117-
1F\	.	.	.	00r	.	2r	.
.	.	2d\	.	.	.	2a\	Et
!	!	!LO:TX:t=P:problem:kreska pseudotaktowa	!	!	!	!	!
4E\	.	0e\	.	.	.	2g/	re-
4D/	.	.	.	.	.	.	.
4C/	.	.	.	.	.	2cc\	-ſur-
!LO:TX:t=P:problem:kreska pseudotaktowa	!	!	!	!	!	!	!
4AA/	.	.	.	.	.	.	.
=118-	=118-	=118-	=118-	=118-	=118-	=118-	=118-
2E\	.	.	.	.	.	4b\	-re-
.	.	.	.	.	.	8cc\L	.
.	.	.	.	.	.	8dd\J	.
2G\	.	.	.	.	.	2.ee\	.
2.F\	.	1A\,	-xit	.	.	.	.
.	.	.	.	.	.	4a\	.
.	.	.	.	.	.	1dd\	.
8E\L	.	.	.	.	.	.	.
!LO:TX:t=P:problem:kreska pseudotaktowa	!	!	!	!	!	!	!
8D\J	.	.	.	.	.	.	.
=119-	=119-	=119-	=119-	=119-	=119-	=119-	=119-
!	!	!	!	!LO:TX:t=P:problem:kreska pseudotaktowa	!	!	!
1E\	.	[2.G/	Et	1r	.	.	.
!	!	!	!	!	!	!LO:TX:b:t=P:problem:# below	!
.	.	.	.	.	.	2cc#X\	.
!	!	!LO:TX:t=P:problem:kreska pseudotaktowa	!	!	!	!	!
.	.	4G/]	.	.	.	.	.
4D/	.	4F/	re-	1d\	Et	2dd\	.
4E\	.	4G/	.	.	.	.	.
4F\	.	4A/	.	.	.	2a\	.
!LO:TX:t=P:problem:kreska pseudotaktowa	!	!LO:TX:t=P:problem:kreska pseudotaktowa	!	!	!	!	!
4G\	.	4B\	.	.	.	.	.
=120-	=120-	=120-	=120-	=120-	=120-	=120-	=120-
2A\	.	4c\	.	2c/	re-	1a\	-xit
.	.	4A/	.	.	.	.	.
4F\	.	2.d\	.	2f\	.	.	.
!LO:TX:t=P:problem:kreska pseudotaktowa	!	!	!	!	!	!	!
4G\	.	.	.	.	.	.	.
4A\	.	.	.	2e\	-ſur-	0r	.
4G\	.	4c\	-ſur-	.	.	.	.
*	*	*	*	*lig	*	*	*
!	!	!LO:TX:t=P:problem:kreska pseudotaktowa	!	!	!	!	!
4F\	.	2c\	-re-	1a\	-re-	.	.
!LO:TX:t=P:problem:kreska pseudotaktowa	!	!	!	!	!	!	!
4E\	.	.	.	.	.	.	.
=121-	=121-	=121-	=121-	=121-	=121-	=121-	=121-
2D/	.	1B\	.	.	.	.	.
4E\	.	.	.	1g\	.	.	.
!LO:TX:t=P:problem:kreska pseudotaktowa	!	!	!	!	!	!	!
4D/	.	.	.	.	.	.	.
*	*	*lig	*	*Xlig	*	*	*
4C/	.	1A\	.	.	.	1a\	Et
4AA/	.	.	.	.	.	.	.
4D/	.	.	.	1f\	.	.	.
!LO:TX:t=P:problem:kreska pseudotaktowa	!	!	!	!	!	!	!
4C/	.	.	.	.	.	.	.
=122-	=122-	=122-	=122-	=122-	=122-	=122-	=122-
*	*	*col	*	*	*	*	*
4BB-X/	.	2.B\	.	.	.	2g/	re-
!LO:SIC:v:t=custos g	!	!	!	!	!	!	!
4AA/	.	.	.	.	.	.	.
!LO:LB:g=original	!	!	!	!	!	!	!
2GG/	.	.	.	2e\	.	2b-X\	-ſur-
!	!	!	!	!	!	!LO:SIC:v:t=custos a	!
*	*	*Xlig	*	*	*	*	*
.	.	4c\	.	.	.	.	.
*	*	*Xlig	*	*	*	*	*
!LO:TX:t=P:problem:kreska pseudotaktowa	!	!LO:TX:t=P:problem:kreska pseudotaktowa	!	!	!	!LO:LB:g=original	!
1D\	.	1d\	-xit	1f\	.	4a\	-re-
.	.	.	.	.	.	8b-\L	.
.	.	.	.	.	.	8cc\J	.
.	.	.	.	.	.	1dd\	.
=123-	=123-	=123-	=123-	=123-	=123-	=123-	=123-
2AA/	-xit	1r	.	0e\	-xit	.	.
2.A\	ter-	.	.	.	.	2cc\	.
.	.	2r	.	.	.	1b#X\	-xit
4A\	-ti-	.	.	.	.	.	.
!LO:TX:t=P:problem:kreska pseudotaktowa	!	!	!	!	!	!	!
2G\	-a	2.e\	ter-	.	.	.	.
=124-	=124-	=124-	=124-	=124-	=124-	=124-	=124-
1F\	di-	.	.	0r	.	2r	.
.	.	4e\	-ti-	.	.	.	.
!	!	!LO:TX:t=P:problem:kreska pseudotaktowa	!	!	!	!	!
.	.	2d\	-a	.	.	2.a\	ter-
!LO:TX:t=P:problem:kreska pseudotaktowa	!	!	!	!	!	!	!
1E\	-e	2c\	di-	.	.	.	.
.	.	.	.	.	.	4a\	-ti-
.	.	2B\	.	.	.	2g/	-a
=125-	=125-	=125-	=125-	=125-	=125-	=125-	=125-
*	*	*	*	*	*	*lig	*
2r	.	1d\	.	1r	.	1f/	di-
2.D/	ter-	.	.	.	.	.	.
!	!	!LO:TX:t=P:problem:kreska pseudotaktowa	!	!	!	!	!
.	.	1A\	-e	2r	.	1e/	.
4D/	-ti-	.	.	.	.	.	.
!LO:TX:t=P:problem:kreska pseudotaktowa	!	!	!	!	!	!	!
2C/	-a	.	.	2.a\	ter-	.	.
*	*	*	*	*	*	*Xlig	*
=126-	=126-	=126-	=126-	=126-	=126-	=126-	=126-
!LO:TX:a:t=P:problem:n above	!	!	!	!	!	!	!
1BBn/	di-	1r	.	.	.	2d/	-e
.	.	.	.	4a\	-ti-	.	.
*	*	*	*	*	*	*	*ij
.	.	.	.	2g\	-a	2.dd\	ter-
1AA/	-e	2r	.	2f\	di-	.	.
.	.	.	.	.	.	4dd\	-ti-
.	.	2.A/	ter-	2e\	.	2cc\	-a
=127-	=127-	=127-	=127-	=127-	=127-	=127-	=127-
2r	.	.	.	2d,\	-e	1b\	di-
.	.	4A/	-ti-	.	.	.	.
!	!	!LO:TX:t=P:problem:kreska pseudotaktowa	!	!	!	!	!
!	!	!LO:SIC:v:t=custos a	!	!	!	!	!
!	!	!LO:TX:a:t=P:problem:# below	!	!	!	!	!
2E\	Se-	2G#X/	-a	2.e\	ter-	.	.
!	!	!LO:LB:g=original	!	!	!	!	!
1F\	-cun-	2.A/	di-	.	.	1a\	-e
.	.	.	.	4e\	-ti-	.	.
.	.	.	.	2d\	-a	.	.
.	.	4B\	.	.	.	.	.
=128-	=128-	=128-	=128-	=128-	=128-	=128-	=128-
!	!	!LO:TX:t=P:problem:kreska pseudotaktowa	!	!	!	!	!
2E\	-dum	1c\	.	1e\	di-	00r	.
!LO:TX:t=P:problem:kreska pseudotaktowa	!	!	!	!	!	!	!
2A\	Scrip-	.	.	.	.	.	.
2.A\	-tu-	2B,\	-e	1.e\	-e	.	.
.	.	2B\	Se-	.	.	.	.
!LO:TX:a:t=P:problem:# above	!	!	!	!	!	!	!
4G#X\	.	.	.	.	.	.	.
=129-	=129-	=129-	=129-	=129-	=129-	=129-	=129-
!	!	!LO:TX:t=P:problem:kreska pseudotaktowa	!	!	!	!	!
2A,\	-ras,	1c\	-cun-	.	.	.	.
!LO:TX:t=P:problem:kreska pseudotaktowa	!	!	!	!	!	!	!
2A\	Se-	.	.	2e\	ſe-	.	.
4D/	.	2A/	-dum	1f\	-cun-	.	.
4E\	.	.	.	.	.	.	.
4F\	.	2d\	Se-	.	.	.	.
4G\	.	.	.	.	.	.	.
=130-	=130-	=130-	=130-	=130-	=130-	=130-	=130-
2A\	cun-	2d\	-c(un)-	4e\	-dum	0r	.
.	.	.	.	4e\	ſcrip-	.	.
!	!	!LO:TX:a:t=P:problem:# above	!	!	!	!	!
4A\	-d(um)	4c#X\	-d(um)	(1a\	-tu-	.	.
!LO:TX:t=P:problem:kreska pseudotaktowa	!	!LO:TX:t=P:problem:kreska pseudotaktowa	!	!	!	!	!
4A\	Scrip-	4c#\	Scrip-	.	.	.	.
1B-X\	-tu-	1.d\	-tu-	.	.	.	.
.	.	.	.	2g\)	.	.	.
*	*	*	*	*	*	*	*Xij
=131-	=131-	=131-	=131-	=131-	=131-	=131-	=131-
!LO:TX:t=P:problem:kreska pseudotaktowa	!	!	!	!	!	!	!
00A\	-ras.	.	.	2f\	.	2.a\	Et
!	!	!LO:TX:t=P:problem:kreska pseudotaktowa	!	!LO:SIC:v:t=custos d	!	!	!
.	.	2c\	-ras.	2e\	-ras	.	.
.	.	.	.	.	.	4a\	aſ-
!	!	!	!	!LO:LB:g=original	!	!	!
.	.	00r	.	2.d\	Et	4d/	-cen-
.	.	.	.	.	.	4e/	.
.	.	.	.	.	.	4f/	.
.	.	.	.	4d\	aſ-	4g/	.
=132-	=132-	=132-	=132-	=132-	=132-	=132-	=132-
.	.	.	.	4A/	-cen-	4a\	.
.	.	.	.	4B/	.	4g/	.
.	.	.	.	4c/	.	4e/	.
.	.	.	.	4d\	.	4f/	.
.	.	.	.	4e\	.	4g/	.
.	.	.	.	4d\	.	4f/	.
.	.	.	.	4B/	.	4d/	.
.	.	.	.	4c/	.	4e/	.
=133-	=133-	=133-	=133-	=133-	=133-	=133-	=133-
00r	.	.	.	4d\	.	4f/	.
.	.	.	.	4e\	.	4g/	.
.	.	.	.	4f\	.	4a\	.
.	.	.	.	4d\	.	4b\	.
*	*	*	*	*	*	*lig	*
.	.	0r	.	4e\	.	1cc\	.
.	.	.	.	4A/	.	.	.
.	.	.	.	2.a\	.	.	.
=134-	=134-	=134-	=134-	=134-	=134-	=134-	=134-
.	.	.	.	.	.	1b\	.
.	.	.	.	4d\	.	.	.
.	.	.	.	1g\	.	.	.
*	*	*	*	*	*	*Xlig	*
!	!	!LO:TX:t=P:problem:kreska pseudotaktowa	!	!	!	!	!
.	.	1r	.	.	.	4a,\	dit
!	!	!	!	!	!	!LO:SIC:v:t=custos d	!
.	.	.	.	.	.	4a\	in
!	!	!	!	!	!	!LO:LB:g=original	!
.	.	.	.	2f\	.	1dd\	cae-
!LO:SIC:v:t=custos d	!	!	!	!	!	!	!
!LO:LB:g=original	!	!	!	!	!	!	!
=135-	=135-	=135-	=135-	=135-	=135-	=135-	=135-
1r	.	2.A/	Et	2e\	.	.	.
!	!	!	!	!	!	!LO:TX:b:t=P:problem:# below	!
.	.	.	.	4e\	-dit	2cc#X\	.
.	.	4A/	aſ-	4e\	in	.	.
2.D/	Et	4D/	-cen-	1f\	cae-	4dd\	.
.	.	4E/	.	.	.	4cc#\	.
.	.	4F/	.	.	.	4a\	.
!LO:TX:t=P:problem:kreska pseudotaktowa	!	!LO:TX:t=P:problem:kreska pseudotaktowa	!	!	!	!	!
4D/	aſ-	4G/	.	.	.	4b\	.
=136-	=136-	=136-	=136-	=136-	=136-	=136-	=136-
*	*	*	*	*	*	*lig	*
4AA/	-cen-	4A/	.	1e\	-lum	1cc\	.
4BB/	.	4G/	.	.	.	.	.
4C/	.	4E/	.	.	.	.	.
!LO:TX:t=P:problem:kreska pseudotaktowa	!	!LO:TX:t=P:problem:kreska pseudotaktowa	!	!	!	!	!
4D/	.	4F/	.	.	.	.	.
4E\	.	4G/	.	00r	.	1b\	.
4D/	.	4F/	.	.	.	.	.
4BB/	.	4D/	.	.	.	.	.
!LO:TX:t=P:problem:kreska pseudotaktowa	!	!LO:TX:t=P:problem:kreska pseudotaktowa	!	!	!	!	!
4C/	.	4E/	.	.	.	.	.
*	*	*	*	*	*	*Xlig	*
=137-	=137-	=137-	=137-	=137-	=137-	=137-	=137-
4D/	.	4F/	.	.	.	1a\	-lum
4E\	.	4G/	.	.	.	.	.
4F\	.	4A/	.	.	.	.	.
!LO:TX:t=P:problem:kreska pseudotaktowa	!	!LO:TX:t=P:problem:kreska pseudotaktowa	!	!	!	!	!
4G\	.	4B\	.	.	.	.	.
4A\	.	4c\	.	.	.	0r	.
4G\	.	4B\	.	.	.	.	.
4E\	.	4G/	.	.	.	.	.
!LO:TX:t=P:problem:kreska pseudotaktowa	!	!LO:TX:t=P:problem:kreska pseudotaktowa	!	!	!	!	!
4F\	.	4A/	.	.	.	.	.
=138-	=138-	=138-	=138-	=138-	=138-	=138-	=138-
4G\	.	2.B\	.	.	.	.	.
4D/	.	.	.	.	.	.	.
2.G\	.	.	.	.	.	.	.
.	.	8A/L	.	.	.	.	.
!	!	!LO:TX:t=P:problem:kreska pseudotaktowa	!	!	!	!	!
.	.	8G/J	.	.	.	.	.
.	.	4A/	.	00r	.	2r	.
4G\	-dit	4D/	-dit	.	.	.	.
!LO:TX:t=P:problem:kreska pseudotaktowa	!	!	!	!	!	!	!
2F\	in	1d\	in	.	.	2a\	Se-
=139-	=139-	=139-	=139-	=139-	=139-	=139-	=139-
1E\	cae-	.	.	.	.	2g/	-det
!	!	!LO:TX:t=P:problem:kreska pseudotaktowa	!	!	!	!	!
!	!	!LO:TX:a:t=P:problem:# above	!	!	!	!	!
.	.	2c#X\	cae-	.	.	2e/	ad
2D,/	-lum	2d,\	-l(um)	.	.	4f/	dex-
.	.	.	.	.	.	4g/	.
!LO:TX:t=P:problem:kreska pseudotaktowa	!	!LO:TX:t=P:problem:kreska pseudotaktowa	!	!	!	!	!
!	!	!LO:SIC:v:t=custos f	!	!	!	!	!
2D/	ſe-	2f\	ſe-	.	.	4a\	.
.	.	.	.	.	.	4b\	.
!	!	!LO:LB:g=original	!	!	!	!	!
=140-	=140-	=140-	=140-	=140-	=140-	=140-	=140-
*	*	*	*	*	*	*lig	*
2C/	.	2e\	-det	.	.	1cc\	.
!	!	!LO:TX:t=P:problem:kreska pseudotaktowa	!	!	!	!	!
2AA/	-det	2c\	ad	.	.	.	.
*	*	*	*	*	*	*col	*
2BB/	ad-	2.d\	dex-	2r	.	2.b\	.
!LO:TX:t=P:problem:kreska pseudotaktowa	!	!	!	!	!	!	!
2GG/	-dex-	.	.	2g\	Se-	.	.
*	*	*	*	*	*	*Xlig	*
!	!	!LO:TX:t=P:problem:kreska pseudotaktowa	!	!	!	!	!
.	.	4d\	-te-	.	.	4b\	-te-
*	*	*	*	*	*	*Xcol	*
=141-	=141-	=141-	=141-	=141-	=141-	=141-	=141-
2.D/	-te-	2d\	-r(am)	2.f\	-det	2a\	-ram
!	!	!LO:TX:t=P:problem:kreska pseudotaktowa	!	!	!	!	!
.	.	[y2A/	Pa-	.	.	1dd\	Pa-
4D/	-ra	.	.	4d\	ad	.	.
!	!	!LO:N:xstem:cue	!	!	!	!	!
4AA/	.	4A\]	.	2e\	dex-	.	.
4BB/	.	4G/	.	.	.	.	.
4C/	.	4E/	.	4e\	-te-	2cc\	.
!LO:TX:t=P:problem:kreska pseudotaktowa	!	!LO:TX:t=P:problem:kreska pseudotaktowa	!	!	!	!	!
!	!	!LO:TX:a:t=P:problem:# below	!	!	!	!	!
4D/	.	4F#X/	.	4e\	-r(am)	.	.
=142-	=142-	=142-	=142-	=142-	=142-	=142-	=142-
!	!	!LO:TX:a:t=P:problem:# below	!	!	!	!	!
1E\	Pa-	4G#X/	.	1e\	Pa-	1b\	.
.	.	2A/	.	.	.	.	.
!	!	!LO:TX:a:t=P:problem:# below	!	!	!	!	!
.	.	4G#X/	.	.	.	.	.
!LO:TX:t=P:problem:kreska pseudotaktowa	!	!	!	!	!	!	!
!LO:SIC:v:t=custos c	!	!LO:TX:t=P:problem:kreska pseudotaktowa	!	!	!	!	!
1AA/	-tris	1A\	-tris.	1e\	-tris.	2a,\	-tris.
.	.	.	.	.	.	2a\	Et
!LO:LB;g=original	!	!	!	!	!	!	!
=143-	=143-	=143-	=143-	=143-	=143-	=143-	=143-
00r	.	2r	.	1r	.	2.cc\	i-
.	.	2A/	Et	.	.	.	.
.	.	.	.	.	.	4cc\	-te-
.	.	2.c\	i-	2r	.	2g/	-r(um)
.	.	.	.	2e\	Et	2g/	Ven-
!	!	!LO:TX:t=P:problem:kreska pseudotaktowa	!	!	!	!	!
.	.	4c\	-te-	.	.	.	.
=144-	=144-	=144-	=144-	=144-	=144-	=144-	=144-
.	.	2G/	-rum	2.g\	i-	2.b-X\	-tu-
.	.	2G/	Ven-	.	.	.	.
!	!	!	!	!LO:SIC:v:t=custos d	!	!	!
.	.	.	.	4g\	-te-	4b-\	-r(us)
!	!	!	!	!LO:LB:g=original	!	!	!
.	.	2.B-X\	-tu-	4d\	rum	4f/	est
.	.	.	.	4c/	.	4e/	.
.	.	.	.	4d\	.	4f/	.
!	!	!	!	!	!	!LO:SIC:v:t=custos a	!
.	.	8A/L	.	4e\	.	4g/	.
!	!	!LO:TX:t=P:problem:kreska pseudotaktowa	!	!	!	!	!
.	.	8G/J	.	.	.	.	.
!	!	!	!	!	!	!LO:LB:g=original	!
=145-	=145-	=145-	=145-	=145-	=145-	=145-	=145-
!LO:TX:t=P:problem:kreska pseudotaktowa	!	!	!	!	!	!	!
1r	.	4F/	.	2f,\	.	2a\	.
.	.	4G/	.	.	.	.	.
.	.	4A/	.	2f\	Ven-	2a\	cum
.	.	4B\	.	.	.	.	.
2r	.	2.c\	.	2.f\	-tu-	2.g/	glo-
2C/	cum	.	.	.	.	.	.
!	!	!LO:TX:t=P:problem:kreska pseudotaktowa	!	!	!	!	!
.	.	4c\	-rus	4e\	-rus	4g/	-ri-
=146-	=146-	=146-	=146-	=146-	=146-	=146-	=146-
2.F\	glo-	2c\	est	2f\	eſt	1a\	-a
.	.	2A/	in	2c/	in	.	.
!LO:TX:t=P:problem:kreska pseudotaktowa	!	!	!	!	!	!	!
4F\	-ri-	.	.	.	.	.	.
!LO:TX:t=P:problem:kreska pseudotaktowa	!	!	!	!	!	!	!
1D\	-a	2.d\	glo-	2.f\	glo-	2a\	cum
.	.	.	.	.	.	2.dd\	glo-
!	!	!LO:TX:t=P:problem:kreska pseudotaktowa	!	!	!	!	!
.	.	4d\	-ri-	4f\	-ri-	.	.
=147-	=147-	=147-	=147-	=147-	=147-	=147-	=147-
2G\	iu-	2B\	-a	2d,\	-a	.	.
.	.	.	.	.	.	4dd\	-ri-
!	!	!LO:TX:t=P:problem:kreska pseudotaktowa	!	!	!	!	!
2E\	-di-	[y2e\	iu-	4g\	iu-	2g/	-a
.	.	.	.	4f\	-di-	.	.
!	!	!LO:N:xstem:cue	!	!	!	!	!
2.A\	-ca-	4e\]	.	2.e\	-ca-	2.cc\	iu-
.	.	4d\	.	.	.	.	.
.	.	2.c\	.	.	.	.	.
!LO:TX:t=P:problem:kreska pseudotaktowa	!	!	!	!	!	!	!
4G\	.	.	.	4e\	-re	4b\	-di-
=148-	=148-	=148-	=148-	=148-	=148-	=148-	=148-
1F\	.	.	.	2.e\	Vi-	1a\	-ca-
.	.	4B\	-di-	.	.	.	.
!	!	!LO:TX:t=P:problem:kreska pseudotaktowa	!	!	!	!	!
.	.	2A/	-ca-	.	.	.	.
.	.	.	.	4d\	.	.	.
!	!	!	!	!	!	!LO:TX:b:t=P:problem:# below	!
2E,\	-re	1B\	.	1e\,	-vos	1g#X\	-re
!LO:TX:t=P:problem:kreska pseudotaktowa	!	!	!	!	!	!	!
2E\	Vi-	.	.	.	.	.	.
=149-	=149-	=149-	=149-	=149-	=149-	=149-	=149-
2C#X/	-vos	2A/	-re	2e\	Vi-	0r	.
!LO:TX:t=P:problem:kreska pseudotaktowa	!	!LO:TX:t=P:problem:kreska pseudotaktowa	!	!	!	!	!
!	!	!LO:SIC:v:t=custos f#	!	!LO:TX:a:t=P:problem:# below	!	!	!
2AA/	et	2A/	Vi-	2c#X/	-vos	.	.
!	!	!LO:LB:g=original	!	!	!	!	!
2.D/	mor-	2F#X/	-vos	2A/	est	.	.
!	!	!LO:TX:t=P:problem:kreska pseudotaktowa	!	!	!	!	!
.	.	2D/	et	2.d\	mor-	.	.
4C#/	.	.	.	.	.	.	.
=150-	=150-	=150-	=150-	=150-	=150-	=150-	=150-
2.BB-X/	.	2.G/	mor-	.	.	2r	.
.	.	.	.	4c/	.	.	.
.	.	.	.	4B-X/	.	2dd\	Vi-
!LO:TX:t=P:problem:kreska pseudotaktowa	!	!	!	!	!	!	!
4AA/	.	4A/	.	4c/	.	.	.
!	!	!LO:TX:t=P:problem:kreska pseudotaktowa	!	!	!	!	!
1.GG/	.	[y(1B-X\	.	1.d\	.	2b-X\	-vos
.	.	.	.	.	.	2g/	et
=151-	=151-	=151-	=151-	=151-	=151-	=151-	=151-
!	!	!LO:N:xstem:cue:vis=4	!	!	!	!	!
.	.	2B-\]	.	.	.	2.dd\	mor-
!LO:TX:a:t=P:problem:# above	!	!	!	!	!	!	!
2FF#/	.	1A\)	.	2d\	-tu-	.	.
.	.	.	.	.	.	4cc\	.
2.GG/	.	.	.	0d\	-os.	2.b-X\	.
.	.	2G/	-tu-	.	.	.	.
4GG/	-tu-	.	.	.	.	4b-\	-tu-
=152-	=152-	=152-	=152-	=152-	=152-	=152-	=152-
!LO:TX:t=P:problem:kreska pseudotaktowa	!	!LO:TX:t=P:problem:kreska pseudotaktowa	!	!	!	!	!
1D\	-os	1F#X/	-os	.	.	2a,\	-os
.	.	.	.	.	.	2a\	Cu-
00r	.	0r	.	2r	.	2d/	-ius
.	.	.	.	2d\	Cu-	2.f/	re-
=153-	=153-	=153-	=153-	=153-	=153-	=153-	=153-
.	.	.	.	2A/	-ius	.	.
.	.	.	.	.	.	4e/	.
.	.	.	.	2.c/	Re-	4e/	.
.	.	.	.	.	.	8d/L	.
.	.	.	.	.	.	8c/J	.
!	!	!LO:TX:t=P:problem:kreska pseudotaktowa	!	!	!	!	!
.	.	1r	.	.	.	2d/	.
!	!	!	!	!LO:SIC:v:t=custos b	!	!	!
.	.	.	.	4B/	.	.	.
!	!	!	!	!LO:LB:g=original	!	!	!
.	.	.	.	4B/	.	1g\	.
.	.	.	.	8A/L	.	.	.
.	.	.	.	8G/J	.	.	.
=154-	=154-	=154-	=154-	=154-	=154-	=154-	=154-
.	.	2r	.	1A/	.	.	.
!	!	!	!	!	!	!LO:TX:b:t=P:problem:# above	!
.	.	2c\	non	.	.	2f#X/	.
2r	.	4G/	e-	4B/	.	1g\	-gni
.	.	4A/	.	4c/	.	.	.
!LO:TX:t=P:problem:kreska pseudotaktowa	!	!	!	!	!	!	!
2G\	non	4B\	.	4d\	.	.	.
!	!	!LO:TX:t=P:problem:kreska pseudotaktowa	!	!	!	!	!
.	.	4c\	.	4e\	.	.	.
!	!	!	!	!	!	!LO:LB:g=original	!
=155-	=155-	=155-	=155-	=155-	=155-	=155-	=155-
4D/	e-	2d\	.	2f\	.	1r	.
4E\	.	.	.	.	.	.	.
4F\	.	2.A/	.	4f\	-gni	.	.
!LO:TX:t=P:problem:kreska pseudotaktowa	!	!	!	!	!	!	!
4G\	.	.	.	4f\	non-	.	.
2.A\	.	.	.	4c/	.	2r	.
.	.	4B\	.	4d\	.	.	.
.	.	4c\	.	4e\	.	2cc\	non
!	!	!LO:TX:t=P:problem:kreska pseudotaktowa	!	!	!	!	!
8G\L	.	4d\	.	4f\	.	.	.
!LO:TX:t=P:problem:kreska pseudotaktowa	!	!	!	!	!	!	!
!LO:SIC:v:t=custos e	!	!	!	!	!	!	!
8F\J	.	.	.	.	.	.	.
!LO:LB:g=original	!	!	!	!	!	!	!
=156-	=156-	=156-	=156-	=156-	=156-	=156-	=156-
4E\	.	2e\	.	1g\	.	4g/	e-
4F\	.	.	.	.	.	4a\	.
!LO:TX:t=P:problem:kreska pseudotaktowa	!	!LO:TX:t=P:problem:kreska pseudotaktowa	!	!	!	!	!
2G\	.	2d\	-rit	.	.	4b\	.
.	.	.	.	.	.	4cc\	.
4D/	.	1.d\	fi-	1.f\	-e-	4dd\	.
4E\	.	.	.	.	.	4cc\	.
4F\	.	.	.	.	.	2.a\	.
!LO:TX:t=P:problem:kreska pseudotaktowa	!	!	!	!	!	!	!
4G\	.	.	.	.	.	.	.
=157-	=157-	=157-	=157-	=157-	=157-	=157-	=157-
2A\	.	.	.	.	.	.	.
.	.	.	.	.	.	4b\	.
2A\	-rit	4c\	.	2e\	-rit	2.cc\	.
!	!	!LO:TX:t=P:problem:kreska pseudotaktowa	!	!	!	!	!
.	.	4d\	.	.	.	.	.
!LO:TX:t=P:problem:kreska pseudotaktowa	!	!	!	!	!	!	!
1G\	fi-	4e\	.	1g\	fi-	.	.
.	.	8d\L	.	.	.	4b\	-rit
.	.	8c\J	.	.	.	.	.
.	.	2d\	.	.	.	2b\	fi-
=158-	=158-	=158-	=158-	=158-	=158-	=158-	=158-
!LO:TX:t=P:problem:kreska pseudotaktowa	!	!LO:TX:t=P:problem:kreska pseudotaktowa	!	!	!	!	!
1C/	-nis.	1e\,	-nis.	1g\,	-nis.	2cc,\	-nis
.	.	.	.	.	.	1g\	Et
!	!	!LO:TX:t=P:problem:kreska pseudotaktowa	!	!	!	!	!
00r	.	1c\	Et	1e\	Et	.	.
.	.	.	.	.	.	1a\	in
=159-	=159-	=159-	=159-	=159-	=159-	=159-	=159-
.	.	1d\	in	1f#X\	in	.	.
.	.	.	.	.	.	2.b\	Spi-
.	.	2.e\	Spi-	2.g\	Spi-	.	.
.	.	.	.	.	.	4b\	-ri-
.	.	.	.	.	.	2g/	-t(um)
!	!	!LO:TX:t=P:problem:kreska pseudotaktowa	!	!	!	!	!
.	.	4e\	-ri-	4f#\	-ri-	.	.
=160-	=160-	=160-	=160-	=160-	=160-	=160-	=160-
.	.	2c\	-t(um)	2e\	-tum	2.cc\	San-
.	.	2.f\	San-	2.a\	San-	.	.
.	.	.	.	.	.	4b\	.
0r	.	.	.	.	.	1a\	.
.	.	4e\	.	4g\	.	.	.
.	.	4d\	.	4f\	.	.	.
!	!	!LO:TX:t=P:problem:kreska pseudotaktowa	!	!	!	!	!
!	!	!LO:SIC:v:t=custos b	!	!	!	!	!
.	.	4c\	.	4e\	.	.	.
!	!	!LO:LB:g=original	!	!	!	!	!
=161-	=161-	=161-	=161-	=161-	=161-	=161-	=161-
.	.	2B\	.	2d\	.	2g/	-cti
.	.	2c\	-ct(um)	2e\	-ct(um)	1g\	Do-
!LO:TX:t=P:problem:kreska pseudotaktowa	!	!	!	!	!	!	!
1r	.	2.A/	Do-	2.c/	Do-	.	.
!	!	!	!	!	!	!LO:TX:b:t=P:problem:# below	!
.	.	.	.	.	.	2f#X/	-mi-
!	!	!LO:TX:t=P:problem:kreska pseudotaktowa	!	!	!	!	!
.	.	4A/	-mi-	4c/	-mi-	.	.
=162-	=162-	=162-	=162-	=162-	=162-	=162-	=162-
2r	.	1G/	-n(um)	1B/	-n(um)	1g\	-n(um)
!LO:TX:t=P:problem:kreska pseudotaktowa	!	!	!	!	!	!	!
2G\	et	.	.	.	.	.	.
2D/	Vi-	2d\	Et	1r	.	0r	.
!	!	!LO:TX:t=P:problem:kreska pseudotaktowa	!	!	!	!	!
1F\	-vi-	2A/	Vi-	.	.	.	.
=163-	=163-	=163-	=163-	=163-	=163-	=163-	=163-
.	.	1.c\	-vi-	2r	.	.	.
!LO:TX:t=P:problem:kreska pseudotaktowa	!	!	!	!LO:SIC:v:t=custos d	!	!	!
2E\	-fi-	.	.	2g\	et	.	.
!	!	!	!	!LO:LB:g=original	!	!	!
2.G\	-can-	.	.	2d\	Vi-	1r	.
.	.	2B\	-fi-	1g\	-vi-	.	.
4F\	.	.	.	.	.	.	.
=164-	=164-	=164-	=164-	=164-	=164-	=164-	=164-
4D/	.	2.A/	-can-	.	.	2r	.
4E\	.	.	.	.	.	.	.
4F\	.	.	.	2f\	-fi-	2dd\	Et
!LO:TX:t=P:problem:kreska pseudotaktowa	!	!	!	!	!	!	!
4D/	.	4B\	.	.	.	.	.
!	!	!LO:TX:t=P:problem:kreska pseudotaktowa	!	!	!	!	!
4E\	.	0c\	-tem	1.e\	-can-	2g/	Vi-
4D/	.	.	.	.	.	.	.
4C/	.	.	.	.	.	1cc\	-vi-
!LO:TX:t=P:problem:kreska pseudotaktowa	!	!	!	!	!	!	!
4D/	.	.	.	.	.	.	.
=165-	=165-	=165-	=165-	=165-	=165-	=165-	=165-
4E\	.	.	.	.	.	.	.
4F\	.	.	.	.	.	.	.
1G\	.	.	.	2d\	-tem	2b\	-fi-
*	*	*	*	*	*	*lig	*
!	!	!LO:TX:t=P:problem:kreska pseudotaktowa	!	!	!	!	!
.	.	0r	.	2r	.	1a\	-can-
!LO:TX:a:t=P:problem:# above	!	!	!	!	!	!	!
2F#\	.	.	.	2d\	qui	.	.
=166-	=166-	=166-	=166-	=166-	=166-	=166-	=166-
!LO:TX:t=P:problem:kreska pseudotaktowa	!	!	!	!	!	!LO:SIC:v:t=custos a	!
1G\	-tem	.	.	2G/	ex	1b\	.
*	*	*	*	*lig	*	*	*
.	.	.	.	1g\	Pa-	.	.
*	*	*	*	*	*	*Xlig	*
!	!	!	!	!	!	!LO:PB:g=original	!
00/	.	2r	.	.	.	1a\	.
!	!	!LO:TX:t=P:problem:kreska pseudotaktowa	!	!	!	!	!
.	.	2d\	qui	1f\	.	.	.
*	*	*	*	*Xlig	*	*	*
=167-	=167-	=167-	=167-	=167-	=167-	=167-	=167-
.	.	2G/	ex	.	.	1g\,	-t(em),
.	.	1c\	Pa-	2e\	-tre	.	.
.	.	.	.	2.d\	Fi-	1g\	qui
!	!	!LO:TX:t=P:problem:kreska pseudotaktowa	!	!	!	!	!
.	.	2B\	-tre	.	.	.	.
.	.	.	.	4d\	-li-	.	.
=168-	=168-	=168-	=168-	=168-	=168-	=168-	=168-
.	.	2.c\	fi-	1e\	-o-	2c/	ex
.	.	.	.	.	.	1cc\	Pa-
.	.	4c\	-li-	.	.	.	.
1r	.	2G/	-o-	2.d\	-que	.	.
.	.	4B\	.	.	.	2b\	-tri
!	!	!LO:TX:t=P:problem:kreska pseudotaktowa	!	!	!	!	!
.	.	4c\	.	4e\	.	.	.
=169-	=169-	=169-	=169-	=169-	=169-	=169-	=169-
!LO:TX:t=P:problem:kreska pseudotaktowa	!	!	!	!	!	!	!
!LO:SIC:v:t=custos a	!	!	!	!	!	!	!
1D\	qui	1d\	-que	1f\	pro-	4a\	.
.	.	.	.	.	.	4g/	.
.	.	.	.	.	.	4a\	.
.	.	.	.	.	.	4b\	.
!LO:LB:g=original	!	!	!	!	!	!	!
2AA/	ex	4c\	.	0e\	.	2.cc\	Fi-
.	.	4B\	.	.	.	.	.
!	!	!LO:TX:t=P:problem:kreska pseudotaktowa	!	!	!	!	!
1A\	Pa-	2A/	pro-	.	.	.	.
.	.	.	.	.	.	4cc\	-li-
=170-	=170-	=170-	=170-	=170-	=170-	=170-	=170-
.	.	1E/	-ce-	.	.	1b\	-o
4G#X\	-tre	.	.	.	.	.	.
!LO:TX:t=P:problem:kreska pseudotaktowa	!	!	!	!	!	!	!
4G#\	et	.	.	.	.	.	.
!	!	!LO:TX:t=P:problem:kreska pseudotaktowa	!	!	!	!	!
2.A\	Fi-	1A\	-dit	1e\	-ce-	1cc\	que
4A\	-li-	.	.	.	.	.	.
=171-	=171-	=171-	=171-	=171-	=171-	=171-	=171-
2E\	-o	00r	.	1e\,	-dit	2g/	pro
!LO:TX:t=P:problem:kreska pseudotaktowa	!	!	!	!	!	!	!
[y2G\	pro-	.	.	.	.	2.b\	ce-
!LO:N:xstem:cue	!	!	!	!	!	!	!
4G\]	.	.	.	2B/	pro-	.	.
4F\	.	.	.	.	.	4a\	.
4F\	.	.	.	2.d\	.	4a\	.
8E\L	.	.	.	.	.	8g/L	.
!LO:TX:t=P:problem:kreska pseudotaktowa	!	!	!	!	!	!LO:TX:b:t=P:problem:# below	!
8D\J	.	.	.	.	.	8f#X/J	.
=172-	=172-	=172-	=172-	=172-	=172-	=172-	=172-
(2E\	.	.	.	.	.	2g#X/	.
.	.	.	.	4c/	.	.	.
2AA/)	.	.	.	4c/	.	1a\	.
.	.	.	.	8B/L	.	.	.
.	.	.	.	8A/J	.	.	.
!LO:TX:t=P:problem:kreska pseudotaktowa	!	!	!	!	!	!	!
1E\	-ce-	.	.	1B/	-ce-	.	.
!	!	!	!	!	!	!LO:TX:b:t=P:problem:# below	!
.	.	.	.	.	.	2g#/	.
=173-	=173-	=173-	=173-	=173-	=173-	=173-	=173-
2AA,/	-dit,	00r	.	1A/,	-dit.	4a\	.
.	.	.	.	.	.	4b\	.
1A\	qui	.	.	.	.	4cc\	.
.	.	.	.	.	.	4dd\	.
.	.	.	.	1.e\	Qui	1.b\	.
!LO:TX:t=P:problem:kreska pseudotaktowa	!	!	!	!	!	!	!
2G\	cum	.	.	.	.	.	.
=174-	=174-	=174-	=174-	=174-	=174-	=174-	=174-
1c\	Pa-	.	.	.	.	.	.
.	.	.	.	2c/	in	2a\	.
2B\	-tre	.	.	1g\	Pa-	1b\	-dit
!LO:TX:t=P:problem:kreska pseudotaktowa	!	!	!	!	!	!	!
2G\	et	.	.	.	.	.	.
=175-	=175-	=175-	=175-	=175-	=175-	=175-	=175-
!	!	!LO:TX:t=P:problem:kreska pseudotaktowa	!	!	!	!	!
2A\	Fi-	0r	.	4f\	-tre	00r	.
!	!	!	!	!LO:SIC:v:t=custos e	!	!	!
.	.	.	.	4f\	et	.	.
!	!	!	!	!LO:PB:g=original	!	!	!
2G\	.	.	.	2.e\	Fi-	.	.
2F\	.	.	.	.	.	.	.
.	.	.	.	4d\	.	.	.
4G\	.	.	.	1d\	.	.	.
!LO:TX:t=P:problem:kreska pseudotaktowa	!	!	!	!	!	!	!
4F\	.	.	.	.	.	.	.
=176-	=176-	=176-	=176-	=176-	=176-	=176-	=176-
2.E\	.	2.G/	Si-	.	.	.	.
.	.	.	.	2c/	-li-	.	.
4E\	-li-	4G/	-mul	.	.	.	.
2D,/	-o	2A/	a-	1d\	-o	.	.
!	!	!LO:TX:t=P:problem:kreska pseudotaktowa	!	!	!	!	!
4D/	ſi-	2B\	-do-	.	.	.	.
!LO:TX:t=P:problem:kreska pseudotaktowa	!	!	!	!	!	!	!
4D/	-mul	.	.	.	.	.	.
=177-	=177-	=177-	=177-	=177-	=177-	=177-	=177-
2E\	a-	1c\	-ra-	1r	.	0r	.
!LO:TX:a:t=P:problem:# above	!	!	!	!	!	!	!
2F#X\	-do-	.	.	.	.	.	.
!	!	!LO:TX:t=P:problem:kreska pseudotaktowa	!	!	!	!	!
!	!	!LO:SIC:v:t=custos c	!	!	!	!	!
1G\	-ra-	1B\	-tur	2.d\	Si-	.	.
.	.	.	.	4d\	-mul	.	.
=178-	=178-	=178-	=178-	=178-	=178-	=178-	=178-
!LO:TX:t=P:problem:kreska pseudotaktowa	!	!	!	!	!	!	!
!LO:SIC:v:t=custos a	!	!	!	!	!	!	!
!LO:TX:b:i:t=Simul	!	!	!	!	!	!	!
1C/	-tur,	2r	.	1e\	A-	2.g/	Si-
!	!	!LO:TX:t=P:problem:kreska pseudotaktowa	!	!	!	!	!
.	.	2c\	et	.	.	.	.
!	!	!	!	!	!	!LO:SIC:v:t=custos a	!
.	.	.	.	.	.	4g/	-mul
!	!	!	!	!	!	!LO:LB:g=original	!
!LO:PB:g=original	!	!	!	!LO:TX:a:t=P:problem:# above	!	!	!
!LO:TX:t=P:problem:kreska pseudotaktowa	!	!	!	!	!	!	!
1r	.	2c\	con-	2f#X\	-do-	2a\	a-
.	.	2B\	-glo-	1g\	-ra-	2b\	-do-
=179-	=179-	=179-	=179-	=179-	=179-	=179-	=179-
*	*	*	*	*	*	*lig	*
!	!	!LO:TX:t=P:problem:kreska pseudotaktowa	!	!	!	!	!
2.AA/	ſi-	[y(<1A\	-ri-	.	.	1cc\	-ra-
.	.	.	.	4f\	.	.	.
4AA/	-mul	.	.	4e\	.	.	.
!	!	!LO:N:xstem:cue:vis=4	!	!	!	!	!
2.BB/	a-	2A\]	.	4d\	.	1b\	.
.	.	.	.	4c/	.	.	.
.	.	1G/)	.	2d\	.	.	.
!LO:TX:t=P:problem:kreska pseudotaktowa	!	!	!	!	!	!	!
4C/	-do-	.	.	.	.	.	.
*	*	*	*	*	*	*Xlig	*
=180-	=180-	=180-	=180-	=180-	=180-	=180-	=180-
1D\	-ra-	.	.	1d\	-tur	2a,\	-tur
.	.	4F/	-fi-	.	.	2dd\	et
!	!	!LO:TX:t=P:problem:kreska pseudotaktowa	!	!	!	!	!
.	.	4G/	.	.	.	.	.
2AA/	-tur	4A/	.	1r	.	2dd\	con-
.	.	4E/	.	.	.	.	.
!LO:TX:t=P:problem:kreska pseudotaktowa	!	!	!	!	!	!	!
2A\	et	2A/	-ca-	.	.	2cc\	-glo-
=181-	=181-	=181-	=181-	=181-	=181-	=181-	=181-
!	!	!LO:TX:t=P:problem:kreska pseudotaktowa	!	!	!	!	!
2A\	con-	1E/	-tur.	2r	.	2b\	-ri-
2G\	-glo-	.	.	2e\	et	2b\	-fi-
2.F\	-ri-	0r	.	2e\	con	0.a\	-ca-
.	.	.	.	2d\	glo-	.	.
!LO:TX:t=P:problem:kreska pseudotaktowa	!	!	!	!	!	!	!
4E\	.	.	.	.	.	.	.
=182-	=182-	=182-	=182-	=182-	=182-	=182-	=182-
2D\	-fi-	.	.	2f\	-ri-	.	.
!LO:TX:b:t=P:problem:# below	!	!	!	!	!	!	!
2C#X/	.	.	.	2e\	-fi-	.	.
1D\	-ca-	2r	.	1f\	-ca-	.	.
.	.	1d\	Qui	.	.	.	.
=183-	=183-	=183-	=183-	=183-	=183-	=183-	=183-
!LO:TX:t=P:problem:kreska pseudotaktowa	!	!	!	!	!	!	!
1AA/	-tur	.	.	1e\	-tur.	2a,\	-tur,
!	!	!LO:TX:t=P:problem:kreska pseudotaktowa	!	!	!	!	!
!	!	!LO:TX:a:t=P:problem:# above	!	!	!	!	!
.	.	2c#X\	lo-	.	.	1a\	Qui
00r	.	2d\	-cu-	2r	.	.	.
!	!	!	!	!	!	!LO:TX:b:t=P:problem:# below	!
.	.	2B\	-t(us)	1d\	Qui	2g#X/	lo-
=184-	=184-	=184-	=184-	=184-	=184-	=184-	=184-
!	!	!LO:TX:t=P:problem:kreska pseudotaktowa	!	!	!	!	!
.	.	1A\	est	.	.	2.a\	-cu-
!	!	!	!	!LO:TX:a:t=P:problem:# below	!	!	!
.	.	.	.	2c#X/	lo-	.	.
.	.	.	.	.	.	4g/	.
.	.	2r	.	2d\	-cu-	4f/	.
.	.	.	.	.	.	4e/	.
.	.	1d\	/Qui	2B/	-t(us)	2d/	.
=185-	=185-	=185-	=185-	=185-	=185-	=185-	=185-
.	.	.	.	1A/	est	2.e/	.
!	!	!LO:TX:t=P:problem:kreska pseudotaktowa	!	!	!	!	!
!	!	!LO:TX:a:t=P:problem:# above	!	!	!	!	!
.	.	2c#X\	lo-	.	.	.	.
.	.	.	.	.	.	4e/	-tus
!	!	!	!	!	!	!LO:TX:b:t=P:problem:# above	!
00r	.	2.d\	-cu-	2r	.	1f#X/	eſt
.	.	.	.	1a\	per	.	.
.	.	4cny\	.	.	.	.	.
=186-	=186-	=186-	=186-	=186-	=186-	=186-	=186-
.	.	2.B\	.	.	.	2r	.
!	!	!	!	!LO:TX:a:t=P:problem:# above	!	!	!
.	.	.	.	2g#X\	Pro-	1dd\	per
!	!	!LO:TX:t=P:problem:kreska pseudotaktowa	!	!	!	!	!
.	.	4B\	-t(us)	.	.	.	.
.	.	1A\	est/	2.a\	-phe-	.	.
!	!	!	!	!	!	!LO:TX:b:t=P:problem:# below	!
.	.	.	.	.	.	2cc#X\	Pro-
!	!	!	!	!LO:SIC:v:t=custos #f	!	!	!
.	.	.	.	4g#\	.	.	.
!	!	!	!	!LO:LB:g=original	!	!	!
=187-	=187-	=187-	=187-	=187-	=187-	=187-	=187-
.	.	2B\	per	4f#X\	.	4dd\	-phe-
.	.	.	.	8e\L	.	4cc\	.
.	.	.	.	8f#\J	.	.	.
!	!	!LO:TX:t=P:problem:kreska pseudotaktowa	!	!	!	!	!
.	.	2G/	Pro-	4g\	.	4b-X\	.
.	.	.	.	4f#\	.	4a\	.
!LO:TX:t=P:problem:kreska pseudotaktowa	!	!	!	!	!	!	!
0r	.	2.c\	-phe-	2.e\	.	2g/	.
.	.	.	.	.	.	4a\	.
.	.	4B\	.	4d\	.	4b-\	.
=188-	=188-	=188-	=188-	=188-	=188-	=188-	=188-
.	.	2A/	.	4e\	.	4cc\	.
!	!	!	!	!LO:TX:a:t=P:problem:# above	!	!	!
.	.	.	.	4f#X\	.	4b\	.
!	!	!LO:TX:t=P:problem:kreska pseudotaktowa	!	!	!	!	!
.	.	2B\	.	1g\	.	4a\	.
!	!	!	!	!	!	!LO:SIC:v:t=custos a	!
.	.	.	.	.	.	4g/	.
!	!	!	!	!	!	!LO:LB:g=original	!
2r	.	1d\	.	.	.	1a\	.
!	!	!	!	!LO:TX:a:t=P:problem:# above	!	!	!
2D/	Et	.	.	2f#X\	.	.	.
=189-	=189-	=189-	=189-	=189-	=189-	=189-	=189-
2BB/	U-	2d\	-tas,	1g\	-tas.	1b\	-tas
!LO:TX:t=P:problem:kreska pseudotaktowa	!	!LO:TX:t=P:problem:kreska pseudotaktowa	!	!	!	!	!
2GG/	-nam	2d\	Et	.	.	.	.
!	!	!LO:SIC:v:t=custos g	!	!	!	!	!
2.G\	San-	2B\	U-	0r	.	1r	.
!	!	!LO:LB:g=original	!	!	!	!	!
.	.	2G/	-nam	.	.	.	.
4F\	.	.	.	.	.	.	.
=190-	=190-	=190-	=190-	=190-	=190-	=190-	=190-
2.E\	.	4G/	San-	.	.	2r	.
.	.	4F/	.	.	.	.	.
.	.	2.E/	.	.	.	2g/	Et
!LO:TX:t=P:problem:kreska pseudotaktowa	!	!	!	!	!	!	!
4D/	.	.	.	.	.	.	.
2.C/	.	.	.	2r	.	2e/	U-
.	.	4F/	.	.	.	.	.
.	.	4G/	.	2e\	Et	2c/	-nam
!	!	!LO:TX:t=P:problem:kreska pseudotaktowa	!	!	!	!	!
4BB/	.	4E/	.	.	.	.	.
=191-	=191-	=191-	=191-	=191-	=191-	=191-	=191-
2.AA/	.	4A/	.	2c/	U-	2.cc\	San-
.	.	4B\	.	.	.	.	.
.	.	4c\	.	2A/	-nam	.	.
!LO:TX:t=P:problem:kreska pseudotaktowa	!	!	!	!	!	!	!
4GG/	.	8d\L	.	.	.	4b\	.
!	!	!LO:TX:t=P:problem:kreska pseudotaktowa	!	!	!	!	!
.	.	8e\J	.	.	.	.	.
4FF/	.	4f\	.	1a\	San-	4a\	.
4GG/	.	4e\	.	.	.	4b\	.
4AA/	.	4c\	.	.	.	2cc\	.
4BB/	.	4d\	.	.	.	.	.
=192-	=192-	=192-	=192-	=192-	=192-	=192-	=192-
2C/	-ct(am)	2e\	.	2g\	-ct(am)	2cc,\	-ct(am)
!LO:TX:t=P:problem:kreska pseudotaktowa	!	!	!	!	!	!	!
!LO:SIC:v:t=custos b-	!	!	!	!	!	!	!
2D/	Ca-	4d\	-ctam	2f\	Ca-	2a\	Ca-
!	!	!LO:TX:t=P:problem:kreska pseudotaktowa	!	!	!	!	!
.	.	4d\	Ca-	.	.	.	.
!LO:LB:g=original	!	!	!	!	!	!	!
2.BB-X/	-tho-	2.d\	-tho-	2f\	-tho-	2.a\	-tho-
.	.	.	.	2d\	-li-	.	.
4BB-/	-li-	4d\	-li-	.	.	4g/	-li-
=193-	=193-	=193-	=193-	=193-	=193-	=193-	=193-
!	!	!LO:TX:t=P:problem:kreska pseudotaktowa	!	!	!	!	!
2AA,/	-cam	1c#X\	-cam,	2e,\	-c(am)	1a\,	-cam
!LO:TX:t=P:problem:kreska pseudotaktowa	!	!	!	!	!	!	!
2AA/	et	.	.	2e\	et	.	.
2D/	A-	0r	.	2f\	A-	1a\	et
2C/	-po-	.	.	2e\	-po-	.	.
=194-	=194-	=194-	=194-	=194-	=194-	=194-	=194-
2.F\	-sto-	.	.	2d\	-sto-	1.a\	A-
.	.	.	.	4c/	.	.	.
!LO:TX:t=P:problem:kreska pseudotaktowa	!	!	!	!	!	!	!
4E\	.	.	.	8d\L	.	.	.
.	.	.	.	8e\J	.	.	.
4D/	.	2A/	Et	2.f\	.	.	.
4E\	.	.	.	.	.	.	.
4F\	.	1d\	A-	.	.	2a\	-po-
4G\	.	.	.	4f\	-li-	.	.
=195-	=195-	=195-	=195-	=195-	=195-	=195-	=195-
2.A\	.	.	.	2e\	-cam	[0a\	-sto-
!	!	!LO:TX:t=P:problem:kreska pseudotaktowa	!	!	!	!	!
!	!	!LO:TX:a:t=P:problem:# above	!	!	!	!	!
.	.	2c#X\	-po-	2A/	et	.	.
!LO:TX:t=P:problem:kreska pseudotaktowa	!	!	!	!	!	!	!
4A\	-li-	.	.	.	.	.	.
2D/	-cam	2f\	-sto-	2d\	A-	.	.
!LO:TX:t=P:problem:kreska pseudotaktowa	!	!	!	!LO:TX:a:t=P:problem:# below	!	!	!
2r	.	2e\	-li-	2c#X/	-po-	.	.
=196-	=196-	=196-	=196-	=196-	=196-	=196-	=196-
1r	.	2d\	-cam	2f\	-sto-	1a\]	.
!	!	!LO:TX:t=P:problem:kreska pseudotaktowa	!	!	!	!	!
!	!	!LO:TX:a:t=P:problem:# above	!	!LO:SIC:v:t=custos f	!	!	!
.	.	2c#X\	Ec-	2e\	-li-	.	.
!	!	!	!	!LO:LB:g=original	!	!	!
2r	.	2.d\	-cle-	2f\	-c(am)	0d/	-li-
!LO:TX:t=P:problem:kreska pseudotaktowa	!	!	!	!	!	!	!
2D/	et	.	.	2f\	et	.	.
.	.	4c#\	-ſi-	.	.	.	.
=197-	=197-	=197-	=197-	=197-	=197-	=197-	=197-
2G\	A-	2B-X,\	-(am)	2g\	A-	.	.
!	!	!LO:TX:t=P:problem:kreska pseudotaktowa	!	!	!	!	!
2F#X\	-po-	2D/	Et	2a\	-po-	.	.
2B-X\	-ſto-	2G/	A-	4.g\	-sto-	0d/	-cam
.	.	.	.	8g\	-li-	.	.
!LO:TX:t=P:problem:kreska pseudotaktowa	!	!	!	!	!	!	!
2A\	-li-	2F#X/	-po-	1d\	-cam	.	.
=198-	=198-	=198-	=198-	=198-	=198-	=198-	=198-
2G\	-cam	2B-X\	-sto-	.	.	.	.
!LO:TX:a:t=P:problem:# above	!	!	!	!	!	!	!
2F#X\	Ec-	1A\	-li-	2d\	Ec-	.	.
4G\	-cle-	.	.	2.B-X/	-cle-	1r	.
4D/	.	.	.	.	.	.	.
!	!	!LO:TX:t=P:problem:kreska pseudotaktowa	!	!	!	!	!
!	!	!LO:SIC:v:t=custos d	!	!	!	!	!
1G\	.	2G/	-cam	.	.	.	.
.	.	.	.	4B-/	-ſi-	.	.
!	!	!LO:LB:g=original	!	!	!	!	!
=199-	=199-	=199-	=199-	=199-	=199-	=199-	=199-
.	.	2D/	Ec-	2.A/	-am	1.a\	Ec-
!LO:TX:t=P:problem:kreska pseudotaktowa	!	!LO:TX:t=P:problem:kreska pseudotaktowa	!	!	!	!	!
2F\	.	2d\	-cle-	.	.	.	.
.	.	.	.	4B/	.	.	.
2.E\	.	2c\	.	4c/	.	.	.
.	.	.	.	4d\	.	.	.
*	*	*lig	*	*	*	*	*
!	!	!	!	!	!	!LO:TX:b:t=P:problem:# below	!
.	.	1B\	.	2e\	Ec-	2g#X/	-cle-
4D/	.	.	.	.	.	.	.
=200-	=200-	=200-	=200-	=200-	=200-	=200-	=200-
*	*	*	*	*	*	*lig	*
4C/	.	.	.	2.e\	-cle-	1cc\	.
4BB/	.	.	.	.	.	.	.
4C/	.	1A\	.	.	.	.	.
!LO:TX:t=P:problem:kreska pseudotaktowa	!	!	!	!	!	!	!
4AA/	.	.	.	4e\	-ſi-	.	.
*	*	*	*	*	*	*col	*
2.E\	.	.	.	2e,\	-am	2.b\	.
*	*	*	*	*	*	*Xlig	*
*	*	*Xlig	*	*	*	*	*
!	!	!LO:TX:t=P:problem:kreska pseudotaktowa	!	!	!	!	!
!	!	!LO:TX:b:t=P:problem:# below	!	!	!	!	!
.	.	2G#X/	-ſi-	2e\	Con-	.	.
!LO:SIC:v:t=custos e	!	!	!	!	!	!	!
4E\	-ſi-	.	.	.	.	4b\	-ſi-
*	*	*	*	*	*	*Xcol	*
!LO:LB:g=original	!	!	!	!	!	!	!
=201-	=201-	=201-	=201-	=201-	=201-	=201-	=201-
!LO:TX:t=P:problem:kreska pseudotaktowa	!	!	!	!	!	!LO:SIC:v:t=custos a	!
1AA/	-am.	2A,/	-am.	4c/	.	1a\	-am
.	.	.	.	4d\	.	.	.
.	.	2A/	Con-	4e\	.	.	.
.	.	.	.	4f\	.	.	.
*	*	*	*	*lig	*	*	*
!	!	!	!	!	!	!LO:LB:g=original	!
2r	.	4G/	-fi-	1g\	-fi-	1r	.
.	.	4A/	.	.	.	.	.
2E\	Con	4B\	.	.	.	.	.
!	!	!LO:TX:t=P:problem:kreska pseudotaktowa	!	!	!	!	!
.	.	4c\	.	.	.	.	.
=202-	=202-	=202-	=202-	=202-	=202-	=202-	=202-
*	*	*	*	*col	*	*	*
4D/	fi-	2.d\	.	2.f\	.	2r	.
4E\	.	.	.	.	.	.	.
4F\	.	.	.	.	.	2a\	U-
*	*	*	*	*Xlig	*	*	*
!LO:TX:t=P:problem:kreska pseudotaktowa	!	!	!	!	!	!	!
4G\	.	4d\	-te-	4f\	-te-	.	.
*	*	*	*	*Xcol	*	*	*
2.A\	.	2c\	-or	0e\	-or	2cc\	-num
!	!	!LO:TX:t=P:problem:kreska pseudotaktowa	!	!	!	!	!
.	.	[y2A/	U-	.	.	2a\	Ba-
4A\	-te-	.	.	.	.	.	.
=203-	=203-	=203-	=203-	=203-	=203-	=203-	=203-
!	!	!LO:N:xstem:cue	!	!	!	!	!
2E\	-or	4A\]	.	.	.	2cc\	-pti-
.	.	4A/	-num	.	.	.	.
!LO:TX:t=P:problem:kreska pseudotaktowa	!	!LO:TX:t=P:problem:kreska pseudotaktowa	!	!	!	!	!
!	!	!LO:TX:a:t=P:problem:# below	!	!	!	!	!
2E\	U-	2G#X/	Bap-	.	.	2b\	.
!	!	!	!	!LO:TX:t=P:problem:kreska pseudotaktowa	!	!	!
2F\	-num	4A/	-ti-	1r	.	4a\	.
.	.	8B\L	.	.	.	4g/	.
.	.	8c\J	.	.	.	.	.
2D/	bap-	1d\	.	.	.	4f/	.
.	.	.	.	.	.	4g/	.
=204-	=204-	=204-	=204-	=204-	=204-	=204-	=204-
4F\	-ti-	.	.	2r	.	0.a\	.
4G\	.	.	.	.	.	.	.
!	!	!LO:TX:t=P:problem:kreska pseudotaktowa	!	!	!	!	!
!	!	!LO:TX:a:t=P:problem:# above	!	!LO:TX:t=P:problem:kreska pseudotaktowa	!	!	!
4A\	.	2c#X\	.	2e\	U-	.	.
!LO:TX:t=P:problem:kreska pseudotaktowa	!	!	!	!	!	!	!
4G\	.	.	.	.	.	.	.
4F\	.	1.d\	.	2.f\	-num	.	.
4E\	.	.	.	.	.	.	.
1D\	.	.	.	.	.	.	.
.	.	.	.	4d\	Bap-	.	.
=205-	=205-	=205-	=205-	=205-	=205-	=205-	=205-
.	.	.	.	2f\	-tiſ-	.	.
!LO:TX:a:t=P:problem:# above	!	!	!	!	!	!	!
2C#X/	.	2e\	.	1e\	.	.	.
!LO:TX:t=P:problem:kreska pseudotaktowa	!	!	!	!	!	!	!
1D\	.	1f\	.	.	.	1a\,	-ſma
.	.	.	.	2d\	-ma	.	.
=206-	=206-	=206-	=206-	=206-	=206-	=206-	=206-
!	!	!LO:TX:t=P:problem:kreska pseudotaktowa	!	!LO:TX:a:t=P:problem:# below	!	!	!
1AA/,	-sma	1e\,	-ſma	1c#X\	in	1.a\	in
!	!	!	!	!LO:TX:a:t=P:problem:# below	!	!	!
00r	.	2A/	in	2c#X/	re-	.	.
!	!	!	!	!LO:SIC:v:t=custos e	!	!	!
.	.	2B\	re-	2d\	-miſ-	2g/	re-
!	!	!	!	!LO:LB:g=original	!	!	!
=207-	=207-	=207-	=207-	=207-	=207-	=207-	=207-
.	.	2c\	-miſ-	2e\	.	2g/	-miſ-
!	!	!LO:TX:t=P:problem:kreska pseudotaktowa	!	!	!	!	!
.	.	2A/	-si-	[2f\	.	2a\	-si-
.	.	1G/	-o-	2.f\]	-ſi-	1b-X\	-o-
.	.	.	.	4e\	-o-	.	.
=208-	=208-	=208-	=208-	=208-	=208-	=208-	=208-
!	!	!LO:TX:t=P:problem:kreska pseudotaktowa	!	!	!	!	!
.	.	1F/	-nem	2f,\	-nem	2a\	-nem
*	*	*	*	*lig	*	*	*
.	.	.	.	1f\	pec-	1a\	pec-
00r	.	2r	.	.	.	.	.
.	.	1c\	pec-	1e\	.	2g/	-ca-
*	*	*	*	*Xlig	*	*	*
=209-	=209-	=209-	=209-	=209-	=209-	=209-	=209-
.	.	.	.	.	.	1.cc\	-to-
!	!	!LO:TX:t=P:problem:kreska pseudotaktowa	!	!	!	!	!
.	.	2A/	-ca-	2c/	.	.	.
!	!	!LO:SIC:v:t=custos d + r(um)	!	!	!	!	!
.	.	[1d\	-to-	1f\	.	.	.
.	.	.	.	.	.	2.b-X\	.
!	!	!LO:LB:g=original	!	!	!	!	!
=210-	=210-	=210-	=210-	=210-	=210-	=210-	=210-
.	.	4d\]	.	4f\	.	.	.
.	.	4c\	.	4e\	.	4a\	.
.	.	4c\	.	4e\	.	1a\	.
.	.	8B-X\L	.	8d\L	.	.	.
!	!	!LO:TX:t=P:problem:kreska pseudotaktowa	!	!	!	!	!
.	.	8A\J	.	8c\J	.	.	.
!LO:TX:t=P:problem:kreska pseudotaktowa	!	!	!	!	!	!	!
1r	.	1B-X\	.	1.d\	-ca-	.	.
.	.	.	.	.	.	2g/	.
=211-	=211-	=211-	=211-	=211-	=211-	=211-	=211-
!	!	!LO:TX:t=P:problem:kreska pseudotaktowa	!	!	!	!	!
2r	.	1A\	-rum	.	.	1a\	-rum
!LO:TX:t=P:problem:kreska pseudotaktowa	!	!	!	!LO:TX:a:t=P:problem:# below	!	!	!
2A\	Et	.	.	2c#X/	-to-	.	.
!LO:TX:a:t=P:problem:# above	!	!	!	!	!	!	!
2F#X\	ex	2d\	Et	1d\	-rum	0r	.
2.G\	pec-	2B\	ex-	.	.	.	.
=212-	=212-	=212-	=212-	=212-	=212-	=212-	=212-
.	.	4e\	-pec-	0r	.	.	.
4F\	.	4d\	.	.	.	.	.
4F\	.	1d\	.	.	.	.	.
8E\L	.	.	.	.	.	.	.
!LO:TX:t=P:problem:kreska pseudotaktowa	!	!	!	!	!	!	!
8D\J	.	.	.	.	.	.	.
1E\	.	.	.	.	.	2.g/	re-
!	!	!LO:TX:a:t=P:problem:# above	!	!	!	!	!
.	.	2c#X\	.	.	.	.	.
.	.	.	.	.	.	4g/	-ſur-
=213-	=213-	=213-	=213-	=213-	=213-	=213-	=213-
!LO:TX:t=P:problem:kreska pseudotaktowa	!	!LO:TX:t=P:problem:kreska pseudotaktowa	!	!	!	!	!
1D\	-cto	1d\	-to	2.d\	re-	2f/	-re-
!	!	!	!	!	!	!LO:SIC:v:t=custos e	!
.	.	.	.	.	.	2d/	-cti-
.	.	.	.	4d\	-ſur-	.	.
!	!	!	!	!	!	!LO:LB:g=original	!
0r	.	0r	.	2c/	-re-	2e/	-o-
.	.	.	.	2A/	-cti-	2f/	-nem
=214-	=214-	=214-	=214-	=214-	=214-	=214-	=214-
.	.	.	.	2B/	-o-	2g/	mor-
.	.	.	.	2c/	-nem	2e/	-tu-
!LO:TX:t=P:problem:kreska pseudotaktowa	!	!	!	!	!	!	!
1r	.	2.d\	re-	(4d\	mor-	4f/	.
.	.	.	.	4e\)	.	4g/	.
.	.	.	.	(4f\	.	4a\	.
.	.	4d\	-ſur-	4d\)	.	4b\	.
=215-	=215-	=215-	=215-	=215-	=215-	=215-	=215-
2.A\	re-	2c\	-re-	2.e\	-tu-	2.cc\	.
!	!	!LO:TX:t=P:problem:kreska pseudotaktowa	!	!	!	!	!
.	.	2A/	-cti-	.	.	.	.
!LO:SIC:v:t=custos g	!	!	!	!	!	!	!
4A\	-ſur	.	.	4f\	-o-	4dd\	-o-
!LO:LB:g=original	!	!	!	!	!	!	!
2G\	rec-	2B\	-o-	1g\,	-rum	1ee\	-rum.
!LO:TX:t=P:problem:kreska pseudotaktowa	!	!	!	!	!	!	!
2E\	-ti-	1c\	-nem	.	.	.	.
=216-	=216-	=216-	=216-	=216-	=216-	=216-	=216-
2F\	-o-	.	.	2.a\	re-	0r	.
!LO:TX:t=P:problem:kreska pseudotaktowa	!	!	!	!	!	!	!
2D/	-nem	2.d\	mor-	.	.	.	.
.	.	.	.	4a\	-ſur-	.	.
2E\	mor-	.	.	2g\	-re-	.	.
.	.	4c\	-tu-	.	.	.	.
!LO:TX:t=P:problem:kreska pseudotaktowa	!	!LO:TX:t=P:problem:kreska pseudotaktowa	!	!	!	!	!
2C/	-tu-	2c\	-o-	2e\	-cti-	.	.
=217-	=217-	=217-	=217-	=217-	=217-	=217-	=217-
2.D/	-o-	4B\	.	2.f\	-o-	1r	.
.	.	4A/	.	.	.	.	.
.	.	1A\	.	.	.	.	.
!	!	!	!	!LO:SIC:v:t=custos d	!	!	!
4C/	.	.	.	4e\	-nem	.	.
!	!	!	!	!LO:LB:g=original	!	!	!
1BBnX/	.	.	.	2.d\	mor-	1b\	Et
!	!	!LO:TX:a:t=P:problem:# above	!	!	!	!	!
.	.	2G#X/	.	.	.	.	.
.	.	.	.	4d\	-tu-	.	.
=218-	=218-	=218-	=218-	=218-	=218-	=218-	=218-
!LO:TX:t=P:problem:kreska pseudotaktowa	!	!	!	!	!	!	!
1AA/,	-rum.	1A\	-rum	4c/	-o-	1cc\	Vi-
.	.	.	.	4d\	.	.	.
.	.	.	.	4e\	.	.	.
.	.	.	.	4f\	.	.	.
!	!	!LO:TX:t=P:problem:kreska pseudotaktowa	!	!	!	!	!
1E\	Et	0r	.	4g\	.	2b\	-tam
.	.	.	.	4f\	.	.	.
.	.	.	.	1e\	.	2g/	Ven-
=219-	=219-	=219-	=219-	=219-	=219-	=219-	=219-
1F\	Vi-	.	.	.	.	2.a\	-tu-
.	.	.	.	2d\	.	.	.
.	.	.	.	.	.	4b\	-ri
*	*	*	*	*	*	*lig	*
2E\	-tam	2r	.	1e\	-rum.	1cc\	Sae-
!LO:TX:t=P:problem:kreska pseudotaktowa	!	!	!	!	!	!	!
2C/	Ven-	1A\	A-	.	.	.	.
=220-	=220-	=220-	=220-	=220-	=220-	=220-	=220-
*	*	*	*	*	*	*col	*
2D/	-tu-	.	.	0r	.	2.b\	.
!	!	!LO:TX:t=P:problem:kreska pseudotaktowa	!	!	!	!	!
!	!	!LO:TX:a:t=P:problem:# below	!	!	!	!	!
2E\	-ri	2G#X/	.	.	.	.	.
*	*	*	*	*	*	*Xlig	*
.	.	.	.	.	.	4b\	-cu-
*	*	*	*	*	*	*Xcol	*
2.F\	ſae-	4A/	.	.	.	2a\	-li
.	.	4B\	.	.	.	.	.
.	.	4c\	.	.	.	1a\	A-
!	!	!LO:TX:t=P:problem:kreska pseudotaktowa	!	!	!	!	!
!	!	!LO:TX:a:t=P:problem:custos e	!	!	!	!	!
4F\	-cu-	4d\	.	.	.	.	.
!	!	!LO:LB:g=original	!	!	!	!	!
=221-	=221-	=221-	=221-	=221-	=221-	=221-	=221-
!LO:TX:t=P:problem:kreska pseudotaktowa	!	!	!	!	!	!	!
1E\	-li.	2e\	.	1B/	Et	.	.
!	!	!	!	!	!	!LO:TX:b:t=P:problem:# above	!
.	.	2E/	.	.	.	2g#X/	.
!	!	!LO:TX:t=P:problem:kreska pseudotaktowa	!	!	!	!	!
2r	.	1A\	-men	1c\	Vi-	4a\	.
.	.	.	.	.	.	4b\	.
1AA/	A-	.	.	.	.	4cc\	.
.	.	.	.	.	.	4dd\	.
=222-	=222-	=222-	=222-	=222-	=222-	=222-	=222-
.	.	2r	.	1B/	-tam	2.ee\	.
!LO:TX:t=P:problem:kreska pseudotaktowa	!	!	!	!	!	!	!
!LO:TX:a:t=P:problem:# above	!	!	!	!	!	!	!
2GG#X/	.	2B\	Et	.	.	.	.
.	.	.	.	.	.	4dd\	.
!	!	!LO:TX:t=P:problem:kreska pseudotaktowa	!	!	!	!	!
4AA/	.	1c\	Vi-	0r	.	2cc\	.
4BB/	.	.	.	.	.	.	.
4C/	.	.	.	.	.	4e/	.
!LO:TX:t=P:problem:kreska pseudotaktowa	!	!	!	!	!	!	!
4D/	.	.	.	.	.	4f/	.
=223-	=223-	=223-	=223-	=223-	=223-	=223-	=223-
4E\	.	2B\	-tam	.	.	4g/	.
4F\	.	.	.	.	.	4a\	.
!	!	!LO:TX:t=P:problem:kreska pseudotaktowa	!	!	!	!	!
1G\	.	2G/	Ven-	.	.	4b\	.
.	.	.	.	.	.	4cc\	.
.	.	2.A/	-tu-	1r	.	4dd\	.
.	.	.	.	.	.	4a\	.
!LO:TX:t=P:problem:kreska pseudotaktowa	!	!	!	!	!	!LO:SIC:v:t=custos g	!
2F\	.	.	.	.	.	2dd\	.
.	.	4B\	.	.	.	.	.
!	!	!	!	!	!	!LO:LB:g=original	!
=224-	=224-	=224-	=224-	=224-	=224-	=224-	=224-
2.E\	.	4c\	.	1e\	Et	1g\	-men
.	.	4G/	-ri	.	.	.	.
.	.	1c\	Sae-	.	.	.	.
8D/L	.	.	.	.	.	.	.
8C/J	.	.	.	.	.	.	.
!LO:SIC:v:t=custos c	!	!	!	!	!	!	!
1D\	.	.	.	1f\	Vi-	1r	.
!	!	!LO:TX:t=P:problem:kreska pseudotaktowa	!	!	!	!	!
.	.	2B\	-cu-	.	.	.	.
!LO:LB:g=original	!	!	!	!	!	!	!
=225-	=225-	=225-	=225-	=225-	=225-	=225-	=225-
1C/	-men	2c\	-li	2e\	-tam	2r	.
.	.	2A/	A-	2c/	Ven-	1a\	A-
!	!	!LO:TX:t=P:problem:kreska pseudotaktowa	!	!	!	!	!
0r	.	1B-X\	.	2.d\	-tu-	.	.
.	.	.	.	.	.	2g/	.
.	.	.	.	4e\	.	.	.
=226-	=226-	=226-	=226-	=226-	=226-	=226-	=226-
.	.	2A/	.	1f\	.	2a\	.
.	.	2F/	.	.	.	1d/	.
!LO:TX:t=P:problem:kreska pseudotaktowa	!	!	!	!	!	!	!
1r	.	2G/	.	1e\	-ri	.	.
.	.	2A/	.	.	.	2c/	.
=227-	=227-	=227-	=227-	=227-	=227-	=227-	=227-
!	!	!LO:TX:t=P:problem:kreska pseudotaktowa	!	!	!	!	!
2r	.	1D/	-men	2.f\	Sae-	4d/	.
.	.	.	.	.	.	4e/	.
1D\	A-	.	.	.	.	4f/	.
.	.	.	.	4f\	-cu-	4g/	.
.	.	1r	.	2e\	-li	2.a\	.
!LO:TX:t=P:problem:kreska pseudotaktowa	!	!	!	!	!	!	!
!LO:TX:a:t=P:problem:# above	!	!	!	!	!	!	!
2C#X/	.	.	.	1e\	A-	.	.
.	.	.	.	.	.	4g/	.
=228-	=228-	=228-	=228-	=228-	=228-	=228-	=228-
4D/	.	1A\	A-	.	.	1f/	.
4E\	.	.	.	.	.	.	.
4F\	.	.	.	2d\	.	.	.
4G\	.	.	.	.	.	.	.
!LO:TX:t=P:problem:kreska pseudotaktowa	!	!LO:TX:t=P:problem:kreska pseudotaktowa	!	!	!	!	!
1A\	.	1c\	.	4c/	.	1e/	-men
.	.	.	.	4d\	.	.	.
.	.	.	.	4e\	.	.	.
.	.	.	.	4f\	.	.	.
=229-	=229-	=229-	=229-	=229-	=229-	=229-	=229-
2G\	.	2B\	.	4g\	.	1r	.
.	.	.	.	4d\	.	.	.
!	!	!LO:TX:t=P:problem:kreska pseudotaktowa	!	!	!	!	!
2E\	.	2G/	.	4e\	.	.	.
!	!	!	!	!LO:SIC:v:t=custos c	!	!	!
.	.	.	.	4d\	.	.	.
!	!	!	!	!LO:LB;g=original	!	!	!
1F\	.	2.A/	.	4c/	.	2r	.
.	.	.	.	4B/	.	.	.
.	.	.	.	4c/	.	1a\	A-
.	.	4B\	.	4d\	.	.	.
=230-	=230-	=230-	=230-	=230-	=230-	=230-	=230-
!LO:TX:t=P:problem:kreska pseudotaktowa	!	!	!	!	!	!	!
1E\	-men.	2c\	.	1e\	.	.	.
!	!	!LO:TX:t=P:problem:kreska pseudotaktowa	!	!	!	!LO:TX:b:t=P:problem:# below	!
.	.	2B\	.	.	.	2g#X/	.
1AA/	Et	2A/	.	1c\	-men	4a\	.
.	.	.	.	.	.	4b\	.
.	.	1A\	.	.	.	4cc\	.
.	.	.	.	.	.	4a\	.
=231-	=231-	=231-	=231-	=231-	=231-	=231-	=231-
1BB-X/	Vi-	.	.	2r	.	1dd\	men
!	!	!LO:TX:t=P:problem:kreska pseudotaktowa	!	!	!	!	!
!	!	!LO:SIC:v:t=custos a	!	!	!	!	!
.	.	2G-X/	.	2d\	Et	.	.
!	!	!LO:LB:g=original	!	!	!	!	!
2AA/	-t(am)	4A/	.	1f\	Vi-	00r	.
.	.	4B\	.	.	.	.	.
!LO:TX:t=P:problem:kreska pseudotaktowa	!	!	!	!	!	!	!
2FF/	Ven-	4c\	.	.	.	.	.
.	.	4d\	.	.	.	.	.
=232-	=232-	=232-	=232-	=232-	=232-	=232-	=232-
2GG/	-tu-	2B-X\	.	2e\	-tam	.	.
!	!	!	!	!LO:TX:a:t=P:problem:# above	!	!	!
2AA/	-ri	4A/	.	2c#X/	Ven-	.	.
!	!	!LO:TX:t=P:problem:kreska pseudotaktowa	!	!	!	!	!
.	.	4G/	.	.	.	.	.
4D/	Sae-	4F/	.	2.d\	-tu-	.	.
4E\	.	4E/	.	.	.	.	.
4F\	.	1D/	.	.	.	.	.
!LO:TX:t=P:problem:kreska pseudotaktowa	!	!	!	!	!	!	!
4G\	.	.	.	4e\	.	.	.
=233-	=233-	=233-	=233-	=233-	=233-	=233-	=233-
2.A\	.	.	.	2f\	.	.	.
!	!	!LO:TX:t=P:problem:kreska pseudotaktowa	!	!	!	!	!
.	.	2C/	-men	2e\	-ri	.	.
4G\	.	.	.	.	.	.	.
4F\	.	4D/	A-	2.d\	Sae-	2r	.
4E\	.	4E/	.	.	.	.	.
!LO:TX:t=P:problem:kreska pseudotaktowa	!	!	!	!	!	!	!
2D/	.	4F/	.	.	.	1d/	A-
.	.	4G/	.	4e\	.	.	.
=234-	=234-	=234-	=234-	=234-	=234-	=234-	=234-
2AA/	.	0.A\	.	2f\	.	.	.
!	!	!	!	!	!	!LO:TX:b:t=P:problem:# above	!
4AA/	-cu-	.	.	4e\	-cu-	2c#X/	.
4AA/	-li	.	.	4e\	-li	.	.
0D\	A-	.	.	2f\	A-	4d/	.
.	.	.	.	.	.	4e/	.
.	.	.	.	2d\	.	4f/	.
.	.	.	.	.	.	4g/	.
=235-	=235-	=235-	=235-	=235-	=235-	=235-	=235-
.	.	.	.	1.f\	.	4a\	.
.	.	.	.	.	.	4d/	.
.	.	.	.	.	.	1dd\	.
0.AA/	-men.	0.A\;	-men	.	.	.	.
.	.	.	.	4e\	.	4cc#X\	.
.	.	.	.	4d\	.	4b\	.
=236-	=236-	=236-	=236-	=236-	=236-	=236-	=236-
.	.	.	.	0e\	-men	0cc#X\	-men.
==	==	==	==	==	==	==	==
*-	*-	*-	*-	*-	*-	*-	*-
!!!system-decoration: [(s1,s2,s3,s4)]
!!!RDF**kern: > = above
!!!RDF**kern: < = below
!!!EED: Leszek Kubiak
!!!EST: 2021-03-12
!!!ENC:Berenika Jozajtis
!!!END:2021-02-27
